; G-Code generated by Simplify3D(R) Version 3.1.0
; Jun 23, 2017 at 1:29:49 PM
; Settings Summary
;   processName,Process1
;   applyToModels,breadboard_plate
;   profileName,bq Witbox 2 (modified)
;   profileVersion,2016-10-16 23:04:25
;   baseProfile,
;   printMaterial,PLA
;   printQuality,Medium
;   printExtruders,
;   extruderName,Primary Extruder
;   extruderToolheadNumber,0
;   extruderDiameter,0.4
;   extruderAutoWidth,0
;   extruderWidth,0.4
;   extrusionMultiplier,0.9
;   extruderUseRetract,1
;   extruderRetractionDistance,2
;   extruderExtraRestartDistance,0
;   extruderRetractionZLift,0
;   extruderRetractionSpeed,1800
;   extruderUseCoasting,0
;   extruderCoastingDistance,0.2
;   extruderUseWipe,0
;   extruderWipeDistance,5
;   primaryExtruder,0
;   layerHeight,0.2
;   topSolidLayers,3
;   bottomSolidLayers,3
;   perimeterOutlines,2
;   printPerimetersInsideOut,1
;   startPointOption,2
;   startPointOriginX,0
;   startPointOriginY,0
;   startPointOriginZ,0
;   sequentialIslands,1
;   spiralVaseMode,0
;   firstLayerHeightPercentage,90
;   firstLayerWidthPercentage,90
;   firstLayerUnderspeed,0.5
;   useRaft,0
;   raftExtruder,0
;   raftLayers,3
;   raftOffset,3
;   raftSeparationDistance,0.04
;   raftInfill,85
;   disableRaftBaseLayers,0
;   useSkirt,1
;   skirtExtruder,0
;   skirtLayers,1
;   skirtOutlines,3
;   skirtOffset,8
;   usePrimePillar,0
;   primePillarExtruder,999
;   primePillarWidth,12
;   primePillarLocation,7
;   primePillarSpeedMultiplier,1
;   useOozeShield,0
;   oozeShieldExtruder,999
;   oozeShieldOffset,2
;   oozeShieldOutlines,1
;   oozeShieldSidewallShape,1
;   oozeShieldSidewallAngle,30
;   oozeShieldSpeedMultiplier,1
;   infillExtruder,0
;   internalInfillPattern,Rectilinear
;   externalInfillPattern,Rectilinear
;   infillPercentage,30
;   outlineOverlapPercentage,15
;   infillExtrusionWidthPercentage,100
;   minInfillLength,5
;   infillLayerInterval,1
;   infillAngles,45,-45
;   overlapInfillAngles,0
;   generateSupport,1
;   supportExtruder,0
;   supportInfillPercentage,30
;   supportExtraInflation,0
;   denseSupportLayers,0
;   denseSupportInfillPercentage,70
;   supportLayerInterval,1
;   supportHorizontalPartOffset,0.3
;   supportUpperSeparationLayers,1
;   supportLowerSeparationLayers,1
;   supportType,0
;   supportGridSpacing,4
;   maxOverhangAngle,45
;   supportAngles,0
;   temperatureName,Primary Extruder
;   temperatureNumber,0
;   temperatureSetpointCount,4
;   temperatureSetpointLayers,1,2,3,4
;   temperatureSetpointTemperatures,235,225,220,215
;   temperatureStabilizeAtStartup,1
;   temperatureHeatedBed,0
;   temperatureRelayBetweenLayers,0
;   temperatureRelayBetweenLoops,0
;   fanLayers,1,2
;   fanSpeeds,0,100
;   blipFanToFullPower,0
;   adjustSpeedForCooling,1
;   minSpeedLayerTime,15
;   minCoolingSpeedSlowdown,20
;   increaseFanForCooling,0
;   minFanLayerTime,45
;   maxCoolingFanSpeed,100
;   increaseFanForBridging,0
;   bridgingFanSpeed,100
;   use5D,1
;   relativeEdistances,0
;   allowEaxisZeroing,1
;   independentExtruderAxes,0
;   includeM10123,0
;   stickySupport,1
;   applyToolheadOffsets,0
;   gcodeXoffset,0
;   gcodeYoffset,0
;   gcodeZoffset,0
;   overrideMachineDefinition,1
;   machineTypeOverride,0
;   strokeXoverride,297
;   strokeYoverride,210
;   strokeZoverride,200
;   originOffsetXoverride,0
;   originOffsetYoverride,0
;   originOffsetZoverride,0
;   homeXdirOverride,-1
;   homeYdirOverride,-1
;   homeZdirOverride,-1
;   flipXoverride,1
;   flipYoverride,-1
;   flipZoverride,1
;   toolheadOffsets,0,0|0,0|0,0|0,0|0,0|0,0
;   overrideFirmwareConfiguration,0
;   firmwareTypeOverride,RepRap (Marlin/Repetier/Sprinter)
;   GPXconfigOverride,r2
;   baudRateOverride,115200
;   overridePrinterModels,1
;   printerModelsOverride
;   startingGcode,M800 ; firmware starting routine
;   layerChangeGcode,
;   retractionGcode,
;   toolChangeGcode,
;   endingGcode,M801 ; firmware ending routine
;   exportFileFormat,gcode
;   celebration,0
;   celebrationSong,Random Song
;   postProcessing,
;   defaultSpeed,3600
;   outlineUnderspeed,0.5
;   solidInfillUnderspeed,0.8
;   supportUnderspeed,0.8
;   rapidXYspeed,4800
;   rapidZspeed,1000
;   minBridgingArea,50
;   bridgingExtraInflation,0
;   bridgingExtrusionMultiplier,1
;   bridgingSpeedMultiplier,1
;   filamentDiameter,1.75
;   filamentPricePerKg,46
;   filamentDensity,1.25
;   useMinPrintHeight,0
;   minPrintHeight,0
;   useMaxPrintHeight,0
;   maxPrintHeight,0
;   useDiaphragm,0
;   diaphragmLayerInterval,20
;   robustSlicing,1
;   mergeAllIntoSolid,0
;   onlyRetractWhenCrossingOutline,1
;   retractBetweenLayers,1
;   useRetractionMinTravel,0
;   retractionMinTravel,3
;   retractWhileWiping,1
;   onlyWipeOutlines,0
;   avoidCrossingOutline,1
;   maxMovementDetourFactor,40
;   toolChangeRetractionDistance,12
;   toolChangeExtraRestartDistance,-0.5
;   toolChangeRetractionSpeed,600
;   allowThinWallGapFill,1
;   thinWallAllowedOverlapPercentage,10
;   horizontalSizeCompensation,0
G90
M82
M106 S0
M104 S235 T0
M109 S235 T0
M800 ; firmware starting routine
G92 E0
G1 E-2.0000 F1800
G1 Z0.180 F1000
; layer 1, Z = 0.18
T0
; tool H0.200 W0.360
; skirt
G1 X138.500 Y50.987 F4800
G1 E0.0000 F540
G92 E0
G1 X138.652 Y50.620 E0.0107 F1800
G1 X143.620 Y45.652 E0.2000
G1 X143.987 Y45.500 E0.2107
G1 X153.013 Y45.500 E0.4538
G1 X153.380 Y45.652 E0.4646
G1 X158.348 Y50.620 E0.6538
G1 X158.500 Y50.987 E0.6645
G1 X158.500 Y159.013 E3.5748
G1 X158.348 Y159.380 E3.5855
G1 X153.380 Y164.348 E3.7748
G1 X153.013 Y164.500 E3.7855
G1 X143.987 Y164.500 E4.0287
G1 X143.620 Y164.348 E4.0394
G1 X138.652 Y159.380 E4.2287
G1 X138.500 Y159.013 E4.2394
G1 X138.500 Y50.987 E7.1496
G1 X138.900 Y51.067 F4800
G92 E0
G1 X138.991 Y50.846 E0.0064 F1800
G1 X143.846 Y45.991 E0.1914
G1 X144.067 Y45.900 E0.1978
G1 X152.933 Y45.900 E0.4367
G1 X153.154 Y45.991 E0.4431
G1 X158.009 Y50.846 E0.6281
G1 X158.100 Y51.067 E0.6345
G1 X158.100 Y158.933 E3.5405
G1 X158.009 Y159.154 E3.5470
G1 X153.154 Y164.009 E3.7319
G1 X152.933 Y164.100 E3.7384
G1 X144.067 Y164.100 E3.9772
G1 X143.846 Y164.009 E3.9837
G1 X138.991 Y159.154 E4.1686
G1 X138.900 Y158.933 E4.1751
G1 X138.900 Y51.067 E7.0811
G1 X139.300 Y51.147 F4800
G92 E0
G1 X139.330 Y51.073 E0.0021 F1800
G1 X144.073 Y46.330 E0.1828
G1 X144.147 Y46.300 E0.1850
G1 X152.853 Y46.300 E0.4195
G1 X152.927 Y46.330 E0.4217
G1 X157.670 Y51.073 E0.6024
G1 X157.700 Y51.147 E0.6045
G1 X157.700 Y158.853 E3.5062
G1 X157.670 Y158.927 E3.5084
G1 X152.927 Y163.670 E3.6891
G1 X152.853 Y163.700 E3.6912
G1 X144.147 Y163.700 E3.9258
G1 X144.073 Y163.670 E3.9279
G1 X139.330 Y158.927 E4.1086
G1 X139.300 Y158.853 E4.1108
G1 X139.300 Y51.147 E7.0125
; inner perimeter
G1 X148.040 Y55.040 F4800
G92 E0
G1 X148.960 Y55.040 E0.0248 F1350
G1 X148.960 Y154.960 E2.7167
G1 X148.040 Y154.960 E2.7415
G1 X148.040 Y55.040 E5.4334
; outer perimeter
G1 X147.680 Y54.680 F4800
G92 E0
G1 X149.320 Y54.680 E0.0442 F900
G1 X149.320 Y155.320 E2.7555
G1 X147.680 Y155.320 E2.7997
G1 X147.680 Y54.680 E5.5110
; solid layer
G1 X148.346 Y55.462 F4800
G92 E0
G1 X148.654 Y55.770 E0.0117 F1440
G1 X148.654 Y56.279 E0.0255
G1 X148.346 Y55.971 E0.0372
G1 X148.346 Y56.480 E0.0509
G1 X148.654 Y56.788 E0.0626
G1 X148.654 Y57.297 E0.0764
G1 X148.346 Y56.989 E0.0881
G1 X148.346 Y57.498 E0.1018
G1 X148.654 Y57.806 E0.1135
G1 X148.654 Y58.315 E0.1273
G1 X148.346 Y58.007 E0.1390
G1 X148.346 Y58.516 E0.1527
G1 X148.654 Y58.824 E0.1644
G1 X148.654 Y59.333 E0.1782
G1 X148.346 Y59.025 E0.1899
G1 X148.346 Y59.535 E0.2036
G1 X148.654 Y59.843 E0.2153
G1 X148.654 Y60.352 E0.2291
G1 X148.346 Y60.044 E0.2408
G1 X148.346 Y60.553 E0.2545
G1 X148.654 Y60.861 E0.2662
G1 X148.654 Y61.370 E0.2800
G1 X148.346 Y61.062 E0.2917
G1 X148.346 Y61.571 E0.3054
G1 X148.654 Y61.879 E0.3171
G1 X148.654 Y62.388 E0.3309
G1 X148.346 Y62.080 E0.3426
G1 X148.346 Y62.589 E0.3563
G1 X148.654 Y62.897 E0.3680
G1 X148.654 Y63.406 E0.3818
G1 X148.346 Y63.098 E0.3935
G1 X148.346 Y63.608 E0.4072
G1 X148.654 Y63.916 E0.4189
G1 X148.654 Y64.425 E0.4327
G1 X148.346 Y64.117 E0.4444
G1 X148.346 Y64.626 E0.4581
G1 X148.654 Y64.934 E0.4698
G1 X148.654 Y65.443 E0.4836
G1 X148.346 Y65.135 E0.4953
G1 X148.346 Y65.644 E0.5090
G1 X148.654 Y65.952 E0.5207
G1 X148.654 Y66.461 E0.5345
G1 X148.346 Y66.153 E0.5462
G1 X148.346 Y66.662 E0.5599
G1 X148.654 Y66.970 E0.5717
G1 X148.654 Y67.479 E0.5854
G1 X148.346 Y67.171 E0.5971
G1 X148.346 Y67.680 E0.6108
G1 X148.654 Y67.988 E0.6226
G1 X148.654 Y68.498 E0.6363
G1 X148.346 Y68.190 E0.6480
G1 X148.346 Y68.699 E0.6617
G1 X148.654 Y69.007 E0.6735
G1 X148.654 Y69.516 E0.6872
G1 X148.346 Y69.208 E0.6989
G1 X148.346 Y69.717 E0.7126
G1 X148.654 Y70.025 E0.7244
G1 X148.654 Y70.534 E0.7381
G1 X148.346 Y70.226 E0.7498
G1 X148.346 Y70.735 E0.7635
G1 X148.654 Y71.043 E0.7753
G1 X148.654 Y71.552 E0.7890
G1 X148.346 Y71.244 E0.8007
G1 X148.346 Y71.753 E0.8144
G1 X148.654 Y72.061 E0.8262
G1 X148.654 Y72.571 E0.8399
G1 X148.346 Y72.263 E0.8516
G1 X148.346 Y72.772 E0.8653
G1 X148.654 Y73.080 E0.8771
G1 X148.654 Y73.589 E0.8908
G1 X148.346 Y73.281 E0.9025
G1 X148.346 Y73.790 E0.9162
G1 X148.654 Y74.098 E0.9280
G1 X148.654 Y74.607 E0.9417
G1 X148.346 Y74.299 E0.9534
G1 X148.346 Y74.808 E0.9671
G1 X148.654 Y75.116 E0.9789
G1 X148.654 Y75.625 E0.9926
G1 X148.346 Y75.317 E1.0043
G1 X148.346 Y75.826 E1.0180
G1 X148.654 Y76.134 E1.0298
G1 X148.654 Y76.643 E1.0435
G1 X148.346 Y76.335 E1.0552
G1 X148.346 Y76.845 E1.0689
G1 X148.654 Y77.153 E1.0807
G1 X148.654 Y77.662 E1.0944
G1 X148.346 Y77.354 E1.1061
G1 X148.346 Y77.863 E1.1198
G1 X148.654 Y78.171 E1.1316
G1 X148.654 Y78.680 E1.1453
G1 X148.346 Y78.372 E1.1570
G1 X148.346 Y78.881 E1.1707
G1 X148.654 Y79.189 E1.1825
G1 X148.654 Y79.698 E1.1962
G1 X148.346 Y79.390 E1.2079
G1 X148.346 Y79.899 E1.2216
G1 X148.654 Y80.207 E1.2334
G1 X148.654 Y80.716 E1.2471
G1 X148.346 Y80.408 E1.2588
G1 X148.346 Y80.917 E1.2725
G1 X148.654 Y81.225 E1.2843
G1 X148.654 Y81.735 E1.2980
G1 X148.346 Y81.427 E1.3097
G1 X148.346 Y81.936 E1.3234
G1 X148.654 Y82.244 E1.3352
G1 X148.654 Y82.753 E1.3489
G1 X148.346 Y82.445 E1.3606
G1 X148.346 Y82.954 E1.3743
G1 X148.654 Y83.262 E1.3861
G1 X148.654 Y83.771 E1.3998
G1 X148.346 Y83.463 E1.4115
G1 X148.346 Y83.972 E1.4252
G1 X148.654 Y84.280 E1.4370
G1 X148.654 Y84.789 E1.4507
G1 X148.346 Y84.481 E1.4624
G1 X148.346 Y84.990 E1.4761
G1 X148.654 Y85.298 E1.4879
G1 X148.654 Y85.808 E1.5016
G1 X148.346 Y85.500 E1.5133
G1 X148.346 Y86.009 E1.5270
G1 X148.654 Y86.317 E1.5388
G1 X148.654 Y86.826 E1.5525
G1 X148.346 Y86.518 E1.5642
G1 X148.346 Y87.027 E1.5779
G1 X148.654 Y87.335 E1.5897
G1 X148.654 Y87.844 E1.6034
G1 X148.346 Y87.536 E1.6151
G1 X148.346 Y88.045 E1.6288
G1 X148.654 Y88.353 E1.6406
G1 X148.654 Y88.862 E1.6543
G1 X148.346 Y88.554 E1.6660
G1 X148.346 Y89.063 E1.6797
G1 X148.654 Y89.371 E1.6915
G1 X148.654 Y89.880 E1.7052
G1 X148.346 Y89.572 E1.7169
G1 X148.346 Y90.082 E1.7307
G1 X148.654 Y90.390 E1.7424
G1 X148.654 Y90.899 E1.7561
G1 X148.346 Y90.591 E1.7678
G1 X148.346 Y91.100 E1.7816
G1 X148.654 Y91.408 E1.7933
G1 X148.654 Y91.917 E1.8070
G1 X148.346 Y91.609 E1.8187
G1 X148.346 Y92.118 E1.8325
G1 X148.654 Y92.426 E1.8442
G1 X148.654 Y92.935 E1.8579
G1 X148.346 Y92.627 E1.8696
G1 X148.346 Y93.136 E1.8834
G1 X148.654 Y93.444 E1.8951
G1 X148.654 Y93.953 E1.9088
G1 X148.346 Y93.645 E1.9205
G1 X148.346 Y94.155 E1.9343
G1 X148.654 Y94.463 E1.9460
G1 X148.654 Y94.972 E1.9597
G1 X148.346 Y94.664 E1.9714
G1 X148.346 Y95.173 E1.9852
G1 X148.654 Y95.481 E1.9969
G1 X148.654 Y95.990 E2.0106
G1 X148.346 Y95.682 E2.0223
G1 X148.346 Y96.191 E2.0361
G1 X148.654 Y96.499 E2.0478
G1 X148.654 Y97.008 E2.0615
G1 X148.346 Y96.700 E2.0732
G1 X148.346 Y97.209 E2.0870
G1 X148.654 Y97.517 E2.0987
G1 X148.654 Y98.026 E2.1124
G1 X148.346 Y97.718 E2.1241
G1 X148.346 Y98.227 E2.1379
G1 X148.654 Y98.535 E2.1496
G1 X148.654 Y99.045 E2.1633
G1 X148.346 Y98.737 E2.1750
G1 X148.346 Y99.246 E2.1888
G1 X148.654 Y99.554 E2.2005
G1 X148.654 Y100.063 E2.2142
G1 X148.346 Y99.755 E2.2259
G1 X148.346 Y100.264 E2.2397
G1 X148.654 Y100.572 E2.2514
G1 X148.654 Y101.081 E2.2651
G1 X148.346 Y100.773 E2.2769
G1 X148.346 Y101.282 E2.2906
G1 X148.654 Y101.590 E2.3023
G1 X148.654 Y102.099 E2.3160
G1 X148.346 Y101.791 E2.3278
G1 X148.346 Y102.300 E2.3415
G1 X148.654 Y102.608 E2.3532
G1 X148.654 Y103.118 E2.3669
G1 X148.346 Y102.810 E2.3787
G1 X148.346 Y103.319 E2.3924
G1 X148.654 Y103.627 E2.4041
G1 X148.654 Y104.136 E2.4178
G1 X148.346 Y103.828 E2.4296
G1 X148.346 Y104.337 E2.4433
G1 X148.654 Y104.645 E2.4550
G1 X148.654 Y105.154 E2.4687
G1 X148.346 Y104.846 E2.4805
G1 X148.346 Y105.355 E2.4942
G1 X148.654 Y105.663 E2.5059
G1 X148.654 Y106.172 E2.5196
G1 X148.346 Y105.864 E2.5314
G1 X148.346 Y106.373 E2.5451
G1 X148.654 Y106.681 E2.5568
G1 X148.654 Y107.190 E2.5705
G1 X148.346 Y106.882 E2.5823
G1 X148.346 Y107.392 E2.5960
G1 X148.654 Y107.700 E2.6077
G1 X148.654 Y108.209 E2.6214
G1 X148.346 Y107.901 E2.6332
G1 X148.346 Y108.410 E2.6469
G1 X148.654 Y108.718 E2.6586
G1 X148.654 Y109.227 E2.6723
G1 X148.346 Y108.919 E2.6841
G1 X148.346 Y109.428 E2.6978
G1 X148.654 Y109.736 E2.7095
G1 X148.654 Y110.245 E2.7232
G1 X148.346 Y109.937 E2.7350
G1 X148.346 Y110.446 E2.7487
G1 X148.654 Y110.754 E2.7604
G1 X148.654 Y111.263 E2.7741
G1 X148.346 Y110.955 E2.7859
G1 X148.346 Y111.465 E2.7996
G1 X148.654 Y111.773 E2.8113
G1 X148.654 Y112.282 E2.8250
G1 X148.346 Y111.974 E2.8368
G1 X148.346 Y112.483 E2.8505
G1 X148.654 Y112.791 E2.8622
G1 X148.654 Y113.300 E2.8759
G1 X148.346 Y112.992 E2.8877
G1 X148.346 Y113.501 E2.9014
G1 X148.654 Y113.809 E2.9131
G1 X148.654 Y114.318 E2.9268
G1 X148.346 Y114.010 E2.9386
G1 X148.346 Y114.519 E2.9523
G1 X148.654 Y114.827 E2.9640
G1 X148.654 Y115.336 E2.9777
G1 X148.346 Y115.028 E2.9895
G1 X148.346 Y115.537 E3.0032
G1 X148.654 Y115.845 E3.0149
G1 X148.654 Y116.355 E3.0286
G1 X148.346 Y116.047 E3.0404
G1 X148.346 Y116.556 E3.0541
G1 X148.654 Y116.864 E3.0658
G1 X148.654 Y117.373 E3.0795
G1 X148.346 Y117.065 E3.0913
G1 X148.346 Y117.574 E3.1050
G1 X148.654 Y117.882 E3.1167
G1 X148.654 Y118.391 E3.1304
G1 X148.346 Y118.083 E3.1422
G1 X148.346 Y118.592 E3.1559
G1 X148.654 Y118.900 E3.1676
G1 X148.654 Y119.409 E3.1813
G1 X148.346 Y119.101 E3.1931
G1 X148.346 Y119.610 E3.2068
G1 X148.654 Y119.918 E3.2185
G1 X148.654 Y120.427 E3.2322
G1 X148.346 Y120.119 E3.2440
G1 X148.346 Y120.629 E3.2577
G1 X148.654 Y120.937 E3.2694
G1 X148.654 Y121.446 E3.2831
G1 X148.346 Y121.138 E3.2949
G1 X148.346 Y121.647 E3.3086
G1 X148.654 Y121.955 E3.3203
G1 X148.654 Y122.464 E3.3340
G1 X148.346 Y122.156 E3.3458
G1 X148.346 Y122.665 E3.3595
G1 X148.654 Y122.973 E3.3712
G1 X148.654 Y123.482 E3.3849
G1 X148.346 Y123.174 E3.3967
G1 X148.346 Y123.683 E3.4104
G1 X148.654 Y123.991 E3.4221
G1 X148.654 Y124.500 E3.4359
G1 X148.346 Y124.192 E3.4476
G1 X148.346 Y124.702 E3.4613
G1 X148.654 Y125.010 E3.4730
G1 X148.654 Y125.519 E3.4868
G1 X148.346 Y125.211 E3.4985
G1 X148.346 Y125.720 E3.5122
G1 X148.654 Y126.028 E3.5239
G1 X148.654 Y126.537 E3.5377
G1 X148.346 Y126.229 E3.5494
G1 X148.346 Y126.738 E3.5631
G1 X148.654 Y127.046 E3.5748
G1 X148.654 Y127.555 E3.5886
G1 X148.346 Y127.247 E3.6003
G1 X148.346 Y127.756 E3.6140
G1 X148.654 Y128.064 E3.6257
G1 X148.654 Y128.573 E3.6395
G1 X148.346 Y128.265 E3.6512
G1 X148.346 Y128.774 E3.6649
G1 X148.654 Y129.082 E3.6766
G1 X148.654 Y129.592 E3.6904
G1 X148.346 Y129.284 E3.7021
G1 X148.346 Y129.793 E3.7158
G1 X148.654 Y130.101 E3.7275
G1 X148.654 Y130.610 E3.7413
G1 X148.346 Y130.302 E3.7530
G1 X148.346 Y130.811 E3.7667
G1 X148.654 Y131.119 E3.7784
G1 X148.654 Y131.628 E3.7922
G1 X148.346 Y131.320 E3.8039
G1 X148.346 Y131.829 E3.8176
G1 X148.654 Y132.137 E3.8293
G1 X148.654 Y132.646 E3.8431
G1 X148.346 Y132.338 E3.8548
G1 X148.346 Y132.847 E3.8685
G1 X148.654 Y133.155 E3.8802
G1 X148.654 Y133.665 E3.8940
G1 X148.346 Y133.357 E3.9057
G1 X148.346 Y133.866 E3.9194
G1 X148.654 Y134.174 E3.9311
G1 X148.654 Y134.683 E3.9449
G1 X148.346 Y134.375 E3.9566
G1 X148.346 Y134.884 E3.9703
G1 X148.654 Y135.192 E3.9821
G1 X148.654 Y135.701 E3.9958
G1 X148.346 Y135.393 E4.0075
