; G-Code generated by Simplify3D(R) Version 3.1.0
; Jun 22, 2017 at 2:51:05 AM
; Settings Summary
;   processName,Process1
;   applyToModels,main_gear
;   profileName,bq Witbox 2 (modified)
;   profileVersion,2016-10-16 23:04:25
;   baseProfile,
;   printMaterial,PLA
;   printQuality,Medium
;   printExtruders,
;   extruderName,Primary Extruder
;   extruderToolheadNumber,0
;   extruderDiameter,0.4
;   extruderAutoWidth,0
;   extruderWidth,0.4
;   extrusionMultiplier,0.9
;   extruderUseRetract,1
;   extruderRetractionDistance,2
;   extruderExtraRestartDistance,0
;   extruderRetractionZLift,0
;   extruderRetractionSpeed,1800
;   extruderUseCoasting,0
;   extruderCoastingDistance,0.2
;   extruderUseWipe,0
;   extruderWipeDistance,5
;   primaryExtruder,0
;   layerHeight,0.2
;   topSolidLayers,3
;   bottomSolidLayers,3
;   perimeterOutlines,2
;   printPerimetersInsideOut,1
;   startPointOption,2
;   startPointOriginX,0
;   startPointOriginY,0
;   startPointOriginZ,0
;   sequentialIslands,1
;   spiralVaseMode,0
;   firstLayerHeightPercentage,90
;   firstLayerWidthPercentage,90
;   firstLayerUnderspeed,0.5
;   useRaft,0
;   raftExtruder,0
;   raftLayers,3
;   raftOffset,3
;   raftSeparationDistance,0.04
;   raftInfill,85
;   disableRaftBaseLayers,0
;   useSkirt,1
;   skirtExtruder,0
;   skirtLayers,1
;   skirtOutlines,3
;   skirtOffset,8
;   usePrimePillar,0
;   primePillarExtruder,999
;   primePillarWidth,12
;   primePillarLocation,7
;   primePillarSpeedMultiplier,1
;   useOozeShield,0
;   oozeShieldExtruder,999
;   oozeShieldOffset,2
;   oozeShieldOutlines,1
;   oozeShieldSidewallShape,1
;   oozeShieldSidewallAngle,30
;   oozeShieldSpeedMultiplier,1
;   infillExtruder,0
;   internalInfillPattern,Rectilinear
;   externalInfillPattern,Rectilinear
;   infillPercentage,30
;   outlineOverlapPercentage,15
;   infillExtrusionWidthPercentage,100
;   minInfillLength,5
;   infillLayerInterval,1
;   infillAngles,45,-45
;   overlapInfillAngles,0
;   generateSupport,1
;   supportExtruder,0
;   supportInfillPercentage,30
;   supportExtraInflation,0
;   denseSupportLayers,0
;   denseSupportInfillPercentage,70
;   supportLayerInterval,1
;   supportHorizontalPartOffset,0.3
;   supportUpperSeparationLayers,1
;   supportLowerSeparationLayers,1
;   supportType,0
;   supportGridSpacing,4
;   maxOverhangAngle,45
;   supportAngles,0
;   temperatureName,Primary Extruder
;   temperatureNumber,0
;   temperatureSetpointCount,4
;   temperatureSetpointLayers,1,2,3,4
;   temperatureSetpointTemperatures,235,225,220,215
;   temperatureStabilizeAtStartup,1
;   temperatureHeatedBed,0
;   temperatureRelayBetweenLayers,0
;   temperatureRelayBetweenLoops,0
;   fanLayers,1,2
;   fanSpeeds,0,100
;   blipFanToFullPower,0
;   adjustSpeedForCooling,1
;   minSpeedLayerTime,15
;   minCoolingSpeedSlowdown,20
;   increaseFanForCooling,0
;   minFanLayerTime,45
;   maxCoolingFanSpeed,100
;   increaseFanForBridging,0
;   bridgingFanSpeed,100
;   use5D,1
;   relativeEdistances,0
;   allowEaxisZeroing,1
;   independentExtruderAxes,0
;   includeM10123,0
;   stickySupport,1
;   applyToolheadOffsets,0
;   gcodeXoffset,0
;   gcodeYoffset,0
;   gcodeZoffset,0
;   overrideMachineDefinition,1
;   machineTypeOverride,0
;   strokeXoverride,297
;   strokeYoverride,210
;   strokeZoverride,200
;   originOffsetXoverride,0
;   originOffsetYoverride,0
;   originOffsetZoverride,0
;   homeXdirOverride,-1
;   homeYdirOverride,-1
;   homeZdirOverride,-1
;   flipXoverride,1
;   flipYoverride,-1
;   flipZoverride,1
;   toolheadOffsets,0,0|0,0|0,0|0,0|0,0|0,0
;   overrideFirmwareConfiguration,0
;   firmwareTypeOverride,RepRap (Marlin/Repetier/Sprinter)
;   GPXconfigOverride,r2
;   baudRateOverride,115200
;   overridePrinterModels,1
;   printerModelsOverride
;   startingGcode,M800 ; firmware starting routine
;   layerChangeGcode,
;   retractionGcode,
;   toolChangeGcode,
;   endingGcode,M801 ; firmware ending routine
;   exportFileFormat,gcode
;   celebration,0
;   celebrationSong,Random Song
;   postProcessing,
;   defaultSpeed,3600
;   outlineUnderspeed,0.5
;   solidInfillUnderspeed,0.8
;   supportUnderspeed,0.8
;   rapidXYspeed,4800
;   rapidZspeed,1000
;   minBridgingArea,50
;   bridgingExtraInflation,0
;   bridgingExtrusionMultiplier,1
;   bridgingSpeedMultiplier,1
;   filamentDiameter,1.75
;   filamentPricePerKg,46
;   filamentDensity,1.25
;   useMinPrintHeight,0
;   minPrintHeight,0
;   useMaxPrintHeight,0
;   maxPrintHeight,0
;   useDiaphragm,0
;   diaphragmLayerInterval,20
;   robustSlicing,1
;   mergeAllIntoSolid,0
;   onlyRetractWhenCrossingOutline,1
;   retractBetweenLayers,1
;   useRetractionMinTravel,0
;   retractionMinTravel,3
;   retractWhileWiping,1
;   onlyWipeOutlines,0
;   avoidCrossingOutline,1
;   maxMovementDetourFactor,20
;   toolChangeRetractionDistance,12
;   toolChangeExtraRestartDistance,-0.5
;   toolChangeRetractionSpeed,600
;   allowThinWallGapFill,1
;   thinWallAllowedOverlapPercentage,10
;   horizontalSizeCompensation,0
G90
M82
M106 S0
M104 S235 T0
M109 S235 T0
M800 ; firmware starting routine
G92 E0
G1 E-2.0000 F1800
G1 Z0.180 F1000
; layer 1, Z = 0.18
T0
; tool H0.200 W0.360
; skirt
G1 X100.285 Y73.498 F4800
G1 E0.0000 F540
G92 E0
G1 X103.563 Y68.977 E0.1505 F1800
G1 X103.605 Y68.887 E0.1531
G1 X103.724 Y68.755 E0.1579
G1 X103.829 Y68.610 E0.1627
G1 X103.908 Y68.551 E0.1654
G1 X107.646 Y64.406 E0.3158
G1 X107.697 Y64.320 E0.3185
G1 X107.832 Y64.199 E0.3233
G1 X107.951 Y64.067 E0.3281
G1 X108.036 Y64.017 E0.3308
G1 X112.195 Y60.290 E0.4812
G1 X112.255 Y60.211 E0.4839
G1 X112.399 Y60.107 E0.4887
G1 X112.532 Y59.988 E0.4935
G1 X112.622 Y59.947 E0.4962
G1 X117.154 Y56.684 E0.6466
G1 X117.221 Y56.612 E0.6493
G1 X117.376 Y56.523 E0.6541
G1 X117.521 Y56.419 E0.6589
G1 X117.615 Y56.387 E0.6616
G1 X122.469 Y53.624 E0.8120
G1 X122.543 Y53.560 E0.8147
G1 X122.707 Y53.488 E0.8195
G1 X122.862 Y53.400 E0.8243
G1 X122.958 Y53.379 E0.8269
G1 X128.078 Y51.147 E0.9774
G1 X128.159 Y51.091 E0.9801
G1 X128.329 Y51.037 E0.9849
G1 X128.493 Y50.966 E0.9897
G1 X128.591 Y50.955 E0.9923
G1 X133.919 Y49.280 E1.1428
G1 X134.005 Y49.233 E1.1455
G1 X134.180 Y49.198 E1.1503
G1 X134.350 Y49.145 E1.1551
G1 X134.449 Y49.144 E1.1577
G1 X139.925 Y48.045 E1.3082
G1 X140.016 Y48.008 E1.3108
G1 X140.193 Y47.991 E1.3156
G1 X140.368 Y47.956 E1.3204
G1 X140.467 Y47.966 E1.3231
G1 X146.028 Y47.455 E1.4736
G1 X146.123 Y47.428 E1.4762
G1 X146.301 Y47.430 E1.4810
G1 X146.479 Y47.414 E1.4858
G1 X146.575 Y47.434 E1.4885
G1 X152.160 Y47.518 E1.6390
G1 X152.257 Y47.500 E1.6416
G1 X152.434 Y47.522 E1.6464
G1 X152.612 Y47.524 E1.6512
G1 X152.706 Y47.555 E1.6539
G1 X158.250 Y48.231 E1.8044
G1 X158.348 Y48.224 E1.8070
G1 X158.522 Y48.264 E1.8118
G1 X158.699 Y48.286 E1.8166
G1 X158.789 Y48.326 E1.8193
G1 X164.230 Y49.588 E1.9697
G1 X164.328 Y49.592 E1.9724
G1 X164.497 Y49.650 E1.9772
G1 X164.670 Y49.690 E1.9820
G1 X164.756 Y49.740 E1.9847
G1 X170.031 Y51.573 E2.1351
G1 X170.129 Y51.587 E2.1378
G1 X170.290 Y51.663 E2.1426
G1 X170.459 Y51.721 E2.1474
G1 X170.538 Y51.780 E2.1501
G1 X175.589 Y54.163 E2.3005
G1 X175.685 Y54.188 E2.3032
G1 X175.837 Y54.280 E2.3080
G1 X175.998 Y54.356 E2.3128
G1 X176.071 Y54.423 E2.3154
G1 X180.840 Y57.330 E2.4659
G1 X180.933 Y57.364 E2.4686
G1 X181.074 Y57.472 E2.4734
G1 X181.226 Y57.565 E2.4782
G1 X181.292 Y57.639 E2.4808
G1 X185.725 Y61.036 E2.6313
G1 X185.813 Y61.080 E2.6340
G1 X185.943 Y61.203 E2.6388
G1 X186.084 Y61.311 E2.6436
G1 X186.141 Y61.392 E2.6462
G1 X190.188 Y65.241 E2.7967
G1 X190.271 Y65.294 E2.7993
G1 X190.387 Y65.430 E2.8041
G1 X190.516 Y65.553 E2.8090
G1 X190.564 Y65.639 E2.8116
G1 X194.179 Y69.897 E2.9621
G1 X194.256 Y69.958 E2.9647
G1 X194.356 Y70.106 E2.9695
G1 X194.472 Y70.241 E2.9743
G1 X194.510 Y70.332 E2.9770
G1 X197.652 Y74.950 E3.1275
G1 X197.722 Y75.019 E3.1301
G1 X197.806 Y75.177 E3.1349
G1 X197.907 Y75.324 E3.1397
G1 X197.936 Y75.418 E3.1424
G1 X200.569 Y80.343 E3.2929
G1 X200.631 Y80.420 E3.2955
G1 X200.698 Y80.585 E3.3003
G1 X200.782 Y80.742 E3.3051
G1 X200.801 Y80.839 E3.3078
G1 X202.895 Y86.017 E3.4582
G1 X202.949 Y86.100 E3.4609
G1 X202.998 Y86.271 E3.4657
G1 X203.065 Y86.436 E3.4705
G1 X203.074 Y86.535 E3.4732
G1 X204.606 Y91.905 E3.6236
G1 X204.651 Y91.993 E3.6263
G1 X204.681 Y92.169 E3.6311
G1 X204.730 Y92.340 E3.6359
G1 X204.728 Y92.439 E3.6386
G1 X205.681 Y97.942 E3.7890
G1 X205.716 Y98.034 E3.7917
G1 X205.728 Y98.212 E3.7965
G1 X205.758 Y98.388 E3.8013
G1 X205.746 Y98.486 E3.8039
G1 X206.108 Y104.059 E3.9544
G1 X206.133 Y104.155 E3.9571
G1 X206.126 Y104.333 E3.9619
G1 X206.137 Y104.510 E3.9667
G1 X206.115 Y104.606 E3.9693
G1 X205.883 Y110.186 E4.1198
G1 X205.898 Y110.284 E4.1225
G1 X205.871 Y110.461 E4.1273
G1 X205.864 Y110.639 E4.1321
G1 X205.831 Y110.732 E4.1347
G1 X205.007 Y116.256 E4.2852
G1 X205.012 Y116.354 E4.2878
G1 X204.967 Y116.527 E4.2926
G1 X204.940 Y116.703 E4.2975
G1 X204.898 Y116.792 E4.3001
G1 X203.491 Y122.198 E4.4506
G1 X203.485 Y122.296 E4.4532
G1 X203.423 Y122.462 E4.4580
G1 X203.378 Y122.635 E4.4628
G1 X203.326 Y122.719 E4.4655
G1 X201.353 Y127.944 E4.6160
G1 X201.336 Y128.041 E4.6186
G1 X201.256 Y128.200 E4.6234
G1 X201.193 Y128.367 E4.6282
G1 X201.132 Y128.445 E4.6309
G1 X198.616 Y133.431 E4.7814
G1 X198.589 Y133.526 E4.7840
G1 X198.492 Y133.675 E4.7888
G1 X198.412 Y133.835 E4.7936
G1 X198.343 Y133.906 E4.7963
G1 X195.310 Y138.596 E4.9467
G1 X195.274 Y138.687 E4.9494
G1 X195.162 Y138.826 E4.9542
G1 X195.065 Y138.976 E4.9590
G1 X194.989 Y139.039 E4.9617
G1 X191.477 Y143.378 E5.1121
G1 X191.430 Y143.466 E5.1147
G1 X191.303 Y143.593 E5.1196
G1 X191.191 Y143.732 E5.1244
G1 X191.108 Y143.787 E5.1271
G1 X187.153 Y147.730 E5.2775
G1 X187.098 Y147.811 E5.2802
G1 X186.959 Y147.923 E5.2850
G1 X186.833 Y148.049 E5.2898
G1 X186.745 Y148.095 E5.2925
G1 X182.393 Y151.595 E5.4429
G1 X182.329 Y151.671 E5.4456
G1 X182.180 Y151.767 E5.4504
G1 X182.041 Y151.879 E5.4552
G1 X181.948 Y151.915 E5.4578
G1 X177.249 Y154.933 E5.6083
G1 X177.178 Y155.001 E5.6110
G1 X177.019 Y155.081 E5.6158
G1 X176.868 Y155.177 E5.6206
G1 X176.773 Y155.204 E5.6232
G1 X171.780 Y157.705 E5.7737
G1 X171.701 Y157.765 E5.7764
G1 X171.534 Y157.828 E5.7812
G1 X171.375 Y157.907 E5.7860
G1 X171.278 Y157.924 E5.7886
G1 X166.047 Y159.880 E5.9391
G1 X165.962 Y159.931 E5.9417
G1 X165.790 Y159.976 E5.9465
G1 X165.623 Y160.038 E5.9513
G1 X165.524 Y160.044 E5.9540
G1 X160.115 Y161.433 E6.1045
G1 X160.026 Y161.475 E6.1071
G1 X159.849 Y161.501 E6.1119
G1 X159.676 Y161.545 E6.1167
G1 X159.578 Y161.541 E6.1194
G1 X154.051 Y162.347 E6.2699
G1 X153.958 Y162.379 E6.2725
G1 X153.780 Y162.386 E6.2773
G1 X153.604 Y162.412 E6.2821
G1 X153.506 Y162.397 E6.2848
G1 X147.925 Y162.611 E6.4352
G1 X147.829 Y162.633 E6.4379
G1 X147.651 Y162.621 E6.4427
G1 X147.473 Y162.628 E6.4475
G1 X147.378 Y162.603 E6.4502
G1 X141.806 Y162.222 E6.6006
G1 X141.707 Y162.235 E6.6033
G1 X141.532 Y162.204 E6.6081
G1 X141.354 Y162.192 E6.6129
G1 X141.262 Y162.156 E6.6156
G1 X135.762 Y161.186 E6.7660
G1 X135.663 Y161.187 E6.7687
G1 X135.492 Y161.138 E6.7735
G1 X135.317 Y161.107 E6.7783
G1 X135.229 Y161.062 E6.7810
G1 X129.863 Y159.512 E6.9314
G1 X129.765 Y159.504 E6.9341
G1 X129.601 Y159.437 E6.9388
G1 X129.428 Y159.387 E6.9437
G1 X129.345 Y159.332 E6.9464
G1 X124.175 Y157.221 E7.0968
G1 X124.078 Y157.202 E7.0995
G1 X123.922 Y157.118 E7.1042
G1 X123.757 Y157.051 E7.1091
G1 X123.680 Y156.988 E7.1117
G1 X118.763 Y154.339 E7.2622
G1 X118.669 Y154.310 E7.2649
G1 X118.522 Y154.209 E7.2697
G1 X118.365 Y154.125 E7.2745
G1 X118.296 Y154.054 E7.2771
G1 X113.688 Y150.898 E7.4276
G1 X113.597 Y150.858 E7.4302
G1 X113.462 Y150.743 E7.4350
G1 X113.315 Y150.642 E7.4398
G1 X113.253 Y150.565 E7.4425
G1 X109.008 Y146.936 E7.5930
G1 X108.921 Y146.888 E7.5956
G1 X108.799 Y146.758 E7.6004
G1 X108.663 Y146.642 E7.6052
G1 X108.611 Y146.559 E7.6079
G1 X104.774 Y142.500 E7.7584
G1 X104.694 Y142.442 E7.7610
G1 X104.586 Y142.301 E7.7658
G1 X104.464 Y142.171 E7.7706
G1 X104.420 Y142.082 E7.7733
G1 X101.037 Y137.639 E7.9237
G1 X100.963 Y137.573 E7.9264
G1 X100.871 Y137.421 E7.9312
G1 X100.763 Y137.279 E7.9360
G1 X100.729 Y137.186 E7.9387
G1 X97.838 Y132.408 E8.0891
G1 X97.771 Y132.335 E8.0918
G1 X97.696 Y132.173 E8.0966
G1 X97.603 Y132.021 E8.1014
G1 X97.579 Y131.925 E8.1041
G1 X95.212 Y126.866 E8.2545
G1 X95.154 Y126.787 E8.2572
G1 X95.096 Y126.618 E8.2620
G1 X95.020 Y126.457 E8.2668
G1 X95.007 Y126.359 E8.2695
G1 X93.191 Y121.078 E8.4199
G1 X93.141 Y120.992 E8.4226
G1 X93.102 Y120.818 E8.4274
G1 X93.044 Y120.650 E8.4322
G1 X93.040 Y120.551 E8.4348
G1 X91.796 Y115.106 E8.5853
G1 X91.756 Y115.016 E8.5880
G1 X91.735 Y114.839 E8.5928
G1 X91.695 Y114.665 E8.5976
G1 X91.703 Y114.567 E8.6002
G1 X91.044 Y109.021 E8.7507
G1 X91.014 Y108.927 E8.7534
G1 X91.012 Y108.748 E8.7582
G1 X90.991 Y108.571 E8.7630
G1 X91.008 Y108.474 E8.7656
G1 X90.943 Y102.890 E8.9161
G1 X90.923 Y102.793 E8.9187
G1 X90.940 Y102.615 E8.9235
G1 X90.938 Y102.437 E8.9283
G1 X90.966 Y102.343 E8.9310
G1 X91.494 Y96.783 E9.0815
G1 X91.485 Y96.684 E9.0841
G1 X91.520 Y96.510 E9.0889
G1 X91.537 Y96.332 E9.0937
G1 X91.575 Y96.241 E9.0964
G1 X92.691 Y90.769 E9.2469
G1 X92.692 Y90.670 E9.2495
G1 X92.746 Y90.500 E9.2543
G1 X92.782 Y90.326 E9.2591
G1 X92.829 Y90.239 E9.2618
G1 X94.521 Y84.917 E9.4122
G1 X94.532 Y84.818 E9.4149
G1 X94.604 Y84.655 E9.4197
G1 X94.658 Y84.485 E9.4245
G1 X94.715 Y84.404 E9.4272
G1 X96.963 Y79.292 E9.5776
G1 X96.984 Y79.195 E9.5803
G1 X97.073 Y79.041 E9.5851
G1 X97.145 Y78.878 E9.5899
G1 X97.209 Y78.803 E9.5926
G1 X99.988 Y73.958 E9.7430
G1 X100.020 Y73.865 E9.7457
G1 X100.124 Y73.720 E9.7505
G1 X100.213 Y73.566 E9.7553
G1 X100.285 Y73.498 E9.7580
G1 X100.587 Y73.765 F4800
G92 E0
G1 X103.910 Y69.180 E0.1525 F1800
G1 X103.942 Y69.110 E0.1546
G1 X104.036 Y69.007 E0.1584
G1 X104.117 Y68.894 E0.1621
G1 X104.179 Y68.848 E0.1642
G1 X107.969 Y64.645 E0.3167
G1 X108.009 Y64.577 E0.3188
G1 X108.114 Y64.483 E0.3226
G1 X108.208 Y64.380 E0.3263
G1 X108.274 Y64.340 E0.3284
G1 X112.491 Y60.562 E0.4810
G1 X112.538 Y60.500 E0.4830
G1 X112.650 Y60.419 E0.4868
G1 X112.754 Y60.326 E0.4905
G1 X112.825 Y60.294 E0.4926
G1 X117.419 Y56.986 E0.6451
G1 X117.472 Y56.929 E0.6472
G1 X117.593 Y56.860 E0.6510
G1 X117.706 Y56.779 E0.6547
G1 X117.779 Y56.754 E0.6568
G1 X122.700 Y53.953 E0.8094
G1 X122.759 Y53.902 E0.8115
G1 X122.886 Y53.847 E0.8152
G1 X123.007 Y53.778 E0.8190
G1 X123.082 Y53.761 E0.8210
G1 X128.273 Y51.498 E0.9736
G1 X128.337 Y51.454 E0.9757
G1 X128.470 Y51.413 E0.9794
G1 X128.597 Y51.357 E0.9832
G1 X128.674 Y51.349 E0.9852
G1 X134.076 Y49.650 E1.1378
G1 X134.143 Y49.614 E1.1399
G1 X134.280 Y49.586 E1.1436
G1 X134.413 Y49.544 E1.1474
G1 X134.490 Y49.544 E1.1494
G1 X140.041 Y48.430 E1.3020
G1 X140.113 Y48.400 E1.3041
G1 X140.251 Y48.388 E1.3078
G1 X140.388 Y48.360 E1.3116
G1 X140.465 Y48.368 E1.3137
G1 X146.103 Y47.850 E1.4662
G1 X146.177 Y47.828 E1.4683
G1 X146.316 Y47.831 E1.4720
G1 X146.455 Y47.818 E1.4758
G1 X146.531 Y47.834 E1.4779
G1 X152.192 Y47.918 E1.6304
G1 X152.268 Y47.904 E1.6325
G1 X152.406 Y47.921 E1.6362
G1 X152.546 Y47.923 E1.6400
G1 X152.619 Y47.947 E1.6421
G1 X158.240 Y48.633 E1.7946
G1 X158.317 Y48.627 E1.7967
G1 X158.452 Y48.659 E1.8004
G1 X158.590 Y48.676 E1.8042
G1 X158.661 Y48.707 E1.8063
G1 X164.177 Y49.987 E1.9588
G1 X164.254 Y49.989 E1.9609
G1 X164.386 Y50.035 E1.9647
G1 X164.521 Y50.066 E1.9684
G1 X164.588 Y50.105 E1.9705
G1 X169.937 Y51.964 E2.1230
G1 X170.013 Y51.974 E2.1251
G1 X170.139 Y52.034 E2.1289
G1 X170.270 Y52.080 E2.1326
G1 X170.333 Y52.125 E2.1347
G1 X175.453 Y54.542 E2.2872
G1 X175.528 Y54.561 E2.2893
G1 X175.647 Y54.633 E2.2931
G1 X175.773 Y54.692 E2.2968
G1 X175.830 Y54.744 E2.2989
G1 X180.665 Y57.691 E2.4514
G1 X180.738 Y57.718 E2.4535
G1 X180.848 Y57.803 E2.4573
G1 X180.967 Y57.875 E2.4610
G1 X181.018 Y57.933 E2.4631
G1 X185.512 Y61.377 E2.6156
G1 X185.581 Y61.412 E2.6177
G1 X185.683 Y61.508 E2.6215
G1 X185.793 Y61.592 E2.6252
G1 X185.837 Y61.655 E2.6273
G1 X189.940 Y65.558 E2.7799
G1 X190.005 Y65.599 E2.7819
G1 X190.095 Y65.705 E2.7857
G1 X190.196 Y65.801 E2.7894
G1 X190.234 Y65.869 E2.7915
G1 X193.899 Y70.185 E2.9441
