; G-Code generated by Simplify3D(R) Version 3.1.0
; Jun 22, 2017 at 3:31:18 AM
; Settings Summary
;   processName,Process1
;   applyToModels,motor_gear
;   profileName,bq Witbox 2 (modified)
;   profileVersion,2016-10-16 23:04:25
;   baseProfile,
;   printMaterial,PLA
;   printQuality,Medium
;   printExtruders,
;   extruderName,Primary Extruder
;   extruderToolheadNumber,0
;   extruderDiameter,0.4
;   extruderAutoWidth,0
;   extruderWidth,0.4
;   extrusionMultiplier,0.9
;   extruderUseRetract,1
;   extruderRetractionDistance,2
;   extruderExtraRestartDistance,0
;   extruderRetractionZLift,0
;   extruderRetractionSpeed,1800
;   extruderUseCoasting,0
;   extruderCoastingDistance,0.2
;   extruderUseWipe,0
;   extruderWipeDistance,5
;   primaryExtruder,0
;   layerHeight,0.2
;   topSolidLayers,3
;   bottomSolidLayers,3
;   perimeterOutlines,2
;   printPerimetersInsideOut,1
;   startPointOption,2
;   startPointOriginX,0
;   startPointOriginY,0
;   startPointOriginZ,0
;   sequentialIslands,1
;   spiralVaseMode,0
;   firstLayerHeightPercentage,90
;   firstLayerWidthPercentage,90
;   firstLayerUnderspeed,0.5
;   useRaft,0
;   raftExtruder,0
;   raftLayers,3
;   raftOffset,3
;   raftSeparationDistance,0.04
;   raftInfill,85
;   disableRaftBaseLayers,0
;   useSkirt,1
;   skirtExtruder,0
;   skirtLayers,1
;   skirtOutlines,3
;   skirtOffset,8
;   usePrimePillar,0
;   primePillarExtruder,999
;   primePillarWidth,12
;   primePillarLocation,7
;   primePillarSpeedMultiplier,1
;   useOozeShield,0
;   oozeShieldExtruder,999
;   oozeShieldOffset,2
;   oozeShieldOutlines,1
;   oozeShieldSidewallShape,1
;   oozeShieldSidewallAngle,30
;   oozeShieldSpeedMultiplier,1
;   infillExtruder,0
;   internalInfillPattern,Rectilinear
;   externalInfillPattern,Rectilinear
;   infillPercentage,30
;   outlineOverlapPercentage,15
;   infillExtrusionWidthPercentage,100
;   minInfillLength,5
;   infillLayerInterval,1
;   infillAngles,45,-45
;   overlapInfillAngles,0
;   generateSupport,1
;   supportExtruder,0
;   supportInfillPercentage,30
;   supportExtraInflation,0
;   denseSupportLayers,0
;   denseSupportInfillPercentage,70
;   supportLayerInterval,1
;   supportHorizontalPartOffset,0.3
;   supportUpperSeparationLayers,1
;   supportLowerSeparationLayers,1
;   supportType,0
;   supportGridSpacing,4
;   maxOverhangAngle,45
;   supportAngles,0
;   temperatureName,Primary Extruder
;   temperatureNumber,0
;   temperatureSetpointCount,4
;   temperatureSetpointLayers,1,2,3,4
;   temperatureSetpointTemperatures,235,225,220,215
;   temperatureStabilizeAtStartup,1
;   temperatureHeatedBed,0
;   temperatureRelayBetweenLayers,0
;   temperatureRelayBetweenLoops,0
;   fanLayers,1,2
;   fanSpeeds,0,100
;   blipFanToFullPower,0
;   adjustSpeedForCooling,1
;   minSpeedLayerTime,15
;   minCoolingSpeedSlowdown,20
;   increaseFanForCooling,0
;   minFanLayerTime,45
;   maxCoolingFanSpeed,100
;   increaseFanForBridging,0
;   bridgingFanSpeed,100
;   use5D,1
;   relativeEdistances,0
;   allowEaxisZeroing,1
;   independentExtruderAxes,0
;   includeM10123,0
;   stickySupport,1
;   applyToolheadOffsets,0
;   gcodeXoffset,0
;   gcodeYoffset,0
;   gcodeZoffset,0
;   overrideMachineDefinition,1
;   machineTypeOverride,0
;   strokeXoverride,297
;   strokeYoverride,210
;   strokeZoverride,200
;   originOffsetXoverride,0
;   originOffsetYoverride,0
;   originOffsetZoverride,0
;   homeXdirOverride,-1
;   homeYdirOverride,-1
;   homeZdirOverride,-1
;   flipXoverride,1
;   flipYoverride,-1
;   flipZoverride,1
;   toolheadOffsets,0,0|0,0|0,0|0,0|0,0|0,0
;   overrideFirmwareConfiguration,0
;   firmwareTypeOverride,RepRap (Marlin/Repetier/Sprinter)
;   GPXconfigOverride,r2
;   baudRateOverride,115200
;   overridePrinterModels,1
;   printerModelsOverride
;   startingGcode,M800 ; firmware starting routine
;   layerChangeGcode,
;   retractionGcode,
;   toolChangeGcode,
;   endingGcode,M801 ; firmware ending routine
;   exportFileFormat,gcode
;   celebration,0
;   celebrationSong,Random Song
;   postProcessing,
;   defaultSpeed,3600
;   outlineUnderspeed,0.5
;   solidInfillUnderspeed,0.8
;   supportUnderspeed,0.8
;   rapidXYspeed,4800
;   rapidZspeed,1000
;   minBridgingArea,50
;   bridgingExtraInflation,0
;   bridgingExtrusionMultiplier,1
;   bridgingSpeedMultiplier,1
;   filamentDiameter,1.75
;   filamentPricePerKg,46
;   filamentDensity,1.25
;   useMinPrintHeight,0
;   minPrintHeight,0
;   useMaxPrintHeight,0
;   maxPrintHeight,0
;   useDiaphragm,0
;   diaphragmLayerInterval,20
;   robustSlicing,1
;   mergeAllIntoSolid,0
;   onlyRetractWhenCrossingOutline,1
;   retractBetweenLayers,1
;   useRetractionMinTravel,0
;   retractionMinTravel,3
;   retractWhileWiping,1
;   onlyWipeOutlines,0
;   avoidCrossingOutline,1
;   maxMovementDetourFactor,20
;   toolChangeRetractionDistance,12
;   toolChangeExtraRestartDistance,-0.5
;   toolChangeRetractionSpeed,600
;   allowThinWallGapFill,1
;   thinWallAllowedOverlapPercentage,10
;   horizontalSizeCompensation,0
G90
M82
M106 S0
M104 S235 T0
M109 S235 T0
M800 ; firmware starting routine
G92 E0
G1 E-2.0000 F1800
G1 Z0.180 F1000
; layer 1, Z = 0.18
T0
; tool H0.200 W0.360
; skirt
G1 X134.456 Y96.921 F4800
G1 E0.0000 F540
G92 E0
G1 X137.629 Y93.062 E0.1346 F1499
G1 X137.823 Y92.917 E0.1411
G1 X141.678 Y91.289 E0.2539
G1 X141.918 Y91.251 E0.2604
G1 X142.037 Y91.261 E0.2636
G1 X142.106 Y91.164 E0.2668
G1 X142.290 Y91.006 E0.2734
G1 X146.024 Y89.117 E0.3861
G1 X146.261 Y89.063 E0.3926
G1 X151.256 Y89.137 E0.5272
G1 X151.491 Y89.199 E0.5338
G1 X155.167 Y91.198 E0.6465
G1 X155.346 Y91.361 E0.6530
G1 X155.413 Y91.460 E0.6563
G1 X155.532 Y91.454 E0.6595
G1 X155.771 Y91.499 E0.6660
G1 X159.575 Y93.242 E0.7788
G1 X159.765 Y93.392 E0.7853
G1 X162.822 Y97.344 E0.9199
G1 X162.920 Y97.566 E0.9264
G1 X163.649 Y101.686 E1.0392
G1 X163.633 Y101.929 E1.0457
G1 X163.597 Y102.043 E1.0489
G1 X163.676 Y102.132 E1.0521
G1 X163.790 Y102.347 E1.0587
G1 X164.800 Y106.407 E1.1714
G1 X164.800 Y106.650 E1.1779
G1 X163.616 Y111.503 E1.3125
G1 X163.504 Y111.719 E1.3191
G1 X160.737 Y114.858 E1.4318
G1 X160.538 Y114.996 E1.4383
G1 X160.426 Y115.039 E1.4416
G1 X160.406 Y115.157 E1.4448
G1 X160.308 Y115.379 E1.4513
G1 X157.763 Y118.701 E1.5641
G1 X157.574 Y118.852 E1.5706
G1 X153.041 Y120.953 E1.7052
G1 X152.803 Y120.999 E1.7117
G1 X148.624 Y120.793 E1.8245
G1 X148.391 Y120.724 E1.8310
G1 X148.288 Y120.663 E1.8342
G1 X148.183 Y120.721 E1.8374
G1 X147.949 Y120.783 E1.8440
G1 X143.765 Y120.864 E1.9567
G1 X143.528 Y120.811 E1.9632
G1 X139.060 Y118.577 E2.0978
G1 X138.875 Y118.419 E2.1044
G1 X136.430 Y115.023 E2.2171
G1 X136.340 Y114.798 E2.2236
G1 X136.323 Y114.680 E2.2269
G1 X136.213 Y114.634 E2.2301
G1 X136.018 Y114.489 E2.2366
G1 X133.346 Y111.269 E2.3494
G1 X133.240 Y111.051 E2.3559
G1 X132.201 Y106.164 E2.4905
G1 X132.209 Y105.921 E2.4970
G1 X133.339 Y101.893 E2.6098
G1 X133.459 Y101.682 E2.6163
G1 X133.541 Y101.595 E2.6195
G1 X133.508 Y101.480 E2.6227
G1 X133.499 Y101.237 E2.6293
G1 X134.351 Y97.140 E2.7420
G1 X134.456 Y96.921 E2.7485
G1 X134.796 Y97.138 F4800
G92 E0
G1 X137.907 Y93.354 E0.1320 F1499
G1 X138.024 Y93.267 E0.1359
G1 X141.789 Y91.677 E0.2460
G1 X141.933 Y91.654 E0.2499
G1 X142.230 Y91.679 E0.2580
G1 X142.404 Y91.436 E0.2660
G1 X142.514 Y91.341 E0.2699
G1 X146.162 Y89.496 E0.3801
G1 X146.303 Y89.463 E0.3840
G1 X151.202 Y89.536 E0.5160
G1 X151.342 Y89.573 E0.5199
G1 X154.933 Y91.526 E0.6300
G1 X155.041 Y91.624 E0.6339
G1 X155.207 Y91.872 E0.6420
G1 X155.505 Y91.856 E0.6500
G1 X155.648 Y91.883 E0.6539
G1 X159.365 Y93.585 E0.7641
G1 X159.479 Y93.676 E0.7680
G1 X162.475 Y97.550 E0.8999
G1 X162.534 Y97.684 E0.9039
G1 X163.247 Y101.708 E1.0140
G1 X163.237 Y101.854 E1.0179
G1 X163.147 Y102.138 E1.0260
G1 X163.345 Y102.362 E1.0340
G1 X163.413 Y102.490 E1.0379
G1 X164.400 Y106.457 E1.1480
G1 X164.400 Y106.602 E1.1520
G1 X163.239 Y111.361 E1.2839
G1 X163.172 Y111.490 E1.2879
G1 X160.469 Y114.557 E1.3980
G1 X160.349 Y114.640 E1.4019
G1 X160.070 Y114.747 E1.4099
G1 X160.020 Y115.041 E1.4180
G1 X159.961 Y115.174 E1.4219
G1 X157.475 Y118.419 E1.5320
G1 X157.362 Y118.510 E1.5360
G1 X152.917 Y120.569 E1.6679
G1 X152.774 Y120.597 E1.6719
G1 X148.692 Y120.396 E1.7820
G1 X148.552 Y120.354 E1.7859
G1 X148.295 Y120.203 E1.7939
G1 X148.033 Y120.347 E1.8020
G1 X147.893 Y120.384 E1.8059
G1 X143.806 Y120.463 E1.9160
G1 X143.664 Y120.431 E1.9199
G1 X139.283 Y118.240 E2.0519
G1 X139.172 Y118.146 E2.0558
G1 X136.783 Y114.829 E2.1660
G1 X136.729 Y114.694 E2.1699
G1 X136.687 Y114.398 E2.1779
G1 X136.412 Y114.283 E2.1860
G1 X136.294 Y114.197 E2.1899
G1 X133.685 Y111.051 E2.3000
G1 X133.621 Y110.920 E2.3039
G1 X132.602 Y106.128 E2.4359
G1 X132.607 Y105.983 E2.4398
G1 X133.711 Y102.048 E2.5499
G1 X133.783 Y101.921 E2.5539
G1 X133.988 Y101.704 E2.5619
G1 X133.906 Y101.417 E2.5700
G1 X133.901 Y101.271 E2.5739
G1 X134.733 Y97.269 E2.6840
G1 X134.796 Y97.138 E2.6879
G1 X135.136 Y97.354 F4800
G92 E0
G1 X138.185 Y93.646 E0.1294 F1499
G1 X138.224 Y93.616 E0.1307
G1 X141.900 Y92.064 E0.2382
G1 X141.948 Y92.056 E0.2395
G1 X142.424 Y92.096 E0.2523
G1 X142.701 Y91.707 E0.2652
G1 X142.738 Y91.676 E0.2665
G1 X146.299 Y89.875 E0.3740
G1 X146.346 Y89.864 E0.3753
G1 X151.147 Y89.936 E0.5047
G1 X151.194 Y89.948 E0.5060
G1 X154.700 Y91.854 E0.6135
G1 X154.735 Y91.887 E0.6148
G1 X155.001 Y92.284 E0.6277
G1 X155.478 Y92.258 E0.6405
G1 X155.526 Y92.267 E0.6419
G1 X159.154 Y93.928 E0.7494
G1 X159.192 Y93.959 E0.7507
G1 X162.129 Y97.757 E0.8800
G1 X162.149 Y97.801 E0.8813
G1 X162.844 Y101.730 E0.9888
G1 X162.841 Y101.779 E0.9901
G1 X162.696 Y102.234 E1.0030
G1 X163.014 Y102.591 E1.0159
G1 X163.037 Y102.634 E1.0172
G1 X164.000 Y106.506 E1.1247
G1 X164.000 Y106.555 E1.1260
G1 X162.862 Y111.219 E1.2553
G1 X162.839 Y111.262 E1.2566
G1 X160.201 Y114.256 E1.3642
G1 X160.161 Y114.284 E1.3655
G1 X159.715 Y114.454 E1.3783
G1 X159.634 Y114.925 E1.3912
G1 X159.614 Y114.970 E1.3925
G1 X157.187 Y118.137 E1.5000
G1 X157.150 Y118.167 E1.5013
G1 X152.793 Y120.186 E1.6307
G1 X152.745 Y120.195 E1.6320
G1 X148.760 Y119.999 E1.7395
G1 X148.713 Y119.985 E1.7408
G1 X148.302 Y119.743 E1.7537
G1 X147.883 Y119.973 E1.7665
G1 X147.836 Y119.985 E1.7678
G1 X143.847 Y120.063 E1.8753
G1 X143.799 Y120.052 E1.8766
G1 X139.505 Y117.904 E2.0060
G1 X139.468 Y117.873 E2.0073
G1 X137.136 Y114.635 E2.1148
G1 X137.118 Y114.590 E2.1161
G1 X137.051 Y114.117 E2.1290
G1 X136.610 Y113.933 E2.1419
G1 X136.571 Y113.904 E2.1432
G1 X134.023 Y110.833 E2.2507
G1 X134.002 Y110.789 E2.2520
G1 X133.004 Y106.093 E2.3813
G1 X133.005 Y106.044 E2.3826
G1 X134.083 Y102.202 E2.4901
G1 X134.107 Y102.160 E2.4914
G1 X134.435 Y101.813 E2.5043
G1 X134.304 Y101.354 E2.5172
G1 X134.302 Y101.305 E2.5185
G1 X135.115 Y97.398 E2.6260
G1 X135.136 Y97.354 E2.6273
; inner perimeter
G1 X143.334 Y101.145 F4800
G92 E0
G1 X143.489 Y100.956 E0.0066 F1124
G1 X143.974 Y100.997 E0.0197
G1 X144.493 Y101.140 E0.0342
G1 X144.813 Y101.296 E0.0438
G1 X144.961 Y101.406 E0.0488
G1 X146.149 Y102.990 E0.1021
G1 X148.326 Y101.982 E0.1667
G1 X147.885 Y100.051 E0.2201
G1 X147.898 Y99.867 E0.2251
G1 X147.985 Y99.521 E0.2347
G1 X148.211 Y99.033 E0.2492
G1 X148.494 Y98.637 E0.2623
G1 X148.739 Y98.641 E0.2689
G1 X149.009 Y99.045 E0.2820
G1 X149.221 Y99.540 E0.2965
G1 X149.298 Y99.888 E0.3061
G1 X149.305 Y100.072 E0.3110
G1 X148.807 Y101.989 E0.3644
G1 X150.952 Y103.062 E0.4290
G1 X152.187 Y101.513 E0.4824
G1 X152.339 Y101.408 E0.4874
G1 X152.663 Y101.261 E0.4970
G1 X153.186 Y101.134 E0.5114
G1 X153.672 Y101.108 E0.5246
G1 X153.822 Y101.301 E0.5312
G1 X153.674 Y101.765 E0.5443
G1 X153.419 Y102.239 E0.5588
G1 X153.196 Y102.516 E0.5684
G1 X153.056 Y102.636 E0.5733
G1 X151.247 Y103.442 E0.6267
G1 X151.746 Y105.789 E0.6913
G1 X153.726 Y105.789 E0.7447
G1 X153.903 Y105.842 E0.7496
G1 X154.220 Y106.004 E0.7592
G1 X154.645 Y106.333 E0.7737
G1 X154.969 Y106.697 E0.7868
G1 X154.911 Y106.934 E0.7934
G1 X154.456 Y107.108 E0.8066
G1 X153.927 Y107.204 E0.8210
G1 X153.571 Y107.202 E0.8306
G1 X153.389 Y107.168 E0.8356
G1 X151.632 Y106.256 E0.8890
G1 X150.108 Y108.109 E0.9536
G1 X151.343 Y109.657 E1.0069
G1 X151.412 Y109.828 E1.0119
G1 X151.483 Y110.178 E1.0215
G1 X151.491 Y110.715 E1.0360
G1 X151.408 Y111.195 E1.0491
G1 X151.186 Y111.298 E1.0557
G1 X150.766 Y111.051 E1.0688
G1 X150.361 Y110.697 E1.0833
G1 X150.141 Y110.417 E1.0929
G1 X150.055 Y110.254 E1.0979
G1 X149.672 Y108.311 E1.1512
G1 X147.273 Y108.275 E1.2159
G1 X146.832 Y110.206 E1.2692
G1 X146.742 Y110.367 E1.2742
G1 X146.513 Y110.640 E1.2838
G1 X146.097 Y110.981 E1.2983
G1 X145.671 Y111.216 E1.3114
G1 X145.452 Y111.106 E1.3180
G1 X145.383 Y110.624 E1.3311
G1 X145.407 Y110.087 E1.3456
G1 X145.489 Y109.740 E1.3552
G1 X145.563 Y109.571 E1.3602
G1 X146.843 Y108.060 E1.4135
G1 X145.375 Y106.163 E1.4782
G1 X143.591 Y107.022 E1.5315
G1 X143.409 Y107.051 E1.5365
G1 X143.053 Y107.042 E1.5461
G1 X142.527 Y106.931 E1.5606
G1 X142.077 Y106.743 E1.5737
G1 X142.026 Y106.504 E1.5803
G1 X142.361 Y106.150 E1.5934
G1 X142.796 Y105.834 E1.6079
G1 X143.118 Y105.681 E1.6175
G1 X143.296 Y105.633 E1.6225
G1 X145.275 Y105.692 E1.6758
G1 X145.844 Y103.362 E1.7404
G1 X144.060 Y102.502 E1.7938
G1 X143.924 Y102.378 E1.7987
G1 X143.706 Y102.090 E1.8085
G1 X143.468 Y101.613 E1.8228
G1 X143.334 Y101.145 E1.8360
; outer perimeter
G1 X142.936 Y101.062 F4800
G92 E0
G1 X143.331 Y100.582 E0.0168 F749
G1 X144.038 Y100.641 E0.0359
G1 X144.621 Y100.802 E0.0522
G1 X145.001 Y100.987 E0.0636
G1 X145.195 Y101.131 E0.0701
G1 X145.240 Y101.178 E0.0718
G1 X146.263 Y102.541 E0.1177
G1 X147.910 Y101.778 E0.1667
G1 X147.531 Y100.116 E0.2126
G1 X147.525 Y100.052 E0.2143
G1 X147.541 Y99.810 E0.2208
G1 X147.645 Y99.400 E0.2322
G1 X147.899 Y98.852 E0.2485
G1 X148.311 Y98.274 E0.2676
G1 X148.933 Y98.284 E0.2844
G1 X149.327 Y98.873 E0.3035
G1 X149.565 Y99.429 E0.3198
G1 X149.657 Y99.842 E0.3312
G1 X149.666 Y100.084 E0.3377
G1 X149.657 Y100.148 E0.3394
G1 X149.229 Y101.797 E0.3854
G1 X150.853 Y102.609 E0.4343
G1 X151.915 Y101.277 E0.4802
G1 X151.962 Y101.232 E0.4819
G1 X152.161 Y101.094 E0.4885
G1 X152.546 Y100.920 E0.4998
G1 X153.133 Y100.776 E0.5161
G1 X153.841 Y100.738 E0.5352
G1 X154.222 Y101.231 E0.5520
G1 X154.007 Y101.906 E0.5711
G1 X153.721 Y102.439 E0.5874
G1 X153.455 Y102.768 E0.5988
G1 X153.272 Y102.926 E0.6053
G1 X153.216 Y102.959 E0.6071
G1 X151.659 Y103.652 E0.6530
G1 X152.037 Y105.429 E0.7019
G1 X153.741 Y105.429 E0.7478
G1 X153.806 Y105.437 E0.7496
G1 X154.038 Y105.506 E0.7561
G1 X154.414 Y105.699 E0.7675
G1 X154.892 Y106.069 E0.7838
G1 X155.363 Y106.599 E0.8029
G1 X155.216 Y107.203 E0.8196
G1 X154.553 Y107.457 E0.8387
G1 X153.958 Y107.565 E0.8550
G1 X153.536 Y107.562 E0.8664
G1 X153.298 Y107.517 E0.8729
G1 X153.237 Y107.494 E0.8747
G1 X151.725 Y106.710 E0.9206
G1 X150.571 Y108.112 E0.9695
G1 X151.634 Y109.445 E1.0154
G1 X151.668 Y109.500 E1.0172
G1 X151.758 Y109.725 E1.0237
G1 X151.842 Y110.139 E1.0351
G1 X151.851 Y110.743 E1.0514
G1 X151.731 Y111.442 E1.0705
G1 X151.166 Y111.704 E1.0872
G1 X150.555 Y111.344 E1.1064
G1 X150.099 Y110.946 E1.1226
G1 X149.838 Y110.614 E1.1340
G1 X149.725 Y110.400 E1.1406
G1 X149.704 Y110.339 E1.1423
G1 X149.375 Y108.667 E1.1882
G1 X147.559 Y108.640 E1.2371
G1 X147.180 Y110.301 E1.2830
G1 X147.158 Y110.362 E1.2848
G1 X147.039 Y110.573 E1.2913
G1 X146.767 Y110.897 E1.3027
G1 X146.300 Y111.281 E1.3190
G1 X145.679 Y111.622 E1.3381
G1 X145.122 Y111.344 E1.3549
G1 X145.022 Y110.642 E1.3740
G1 X145.049 Y110.038 E1.3903
G1 X145.146 Y109.626 E1.4017
G1 X145.243 Y109.404 E1.4082
G1 X145.278 Y109.350 E1.4099
G1 X146.380 Y108.050 E1.4558
G1 X145.269 Y106.613 E1.5048
G1 X143.734 Y107.353 E1.5507
G1 X143.672 Y107.373 E1.5524
G1 X143.433 Y107.412 E1.5589
G1 X143.011 Y107.401 E1.5703
G1 X142.419 Y107.276 E1.5866
G1 X141.764 Y107.003 E1.6057
G1 X141.635 Y106.394 E1.6225
G1 X142.122 Y105.878 E1.6416
G1 X142.611 Y105.523 E1.6579
G1 X142.993 Y105.341 E1.6693
G1 X143.227 Y105.279 E1.6758
G1 X143.291 Y105.273 E1.6775
G1 X144.995 Y105.324 E1.7235
G1 X145.425 Y103.560 E1.7724
G1 X143.890 Y102.820 E1.8183
G1 X143.835 Y102.785 E1.8200
G1 X143.657 Y102.622 E1.8266
