; G-Code generated by Simplify3D(R) Version 3.1.0
; Jun 23, 2017 at 1:03:40 AM
; Settings Summary
;   processName,Process1
;   applyToModels,mount_plate
;   profileName,bq Witbox 2 (modified)
;   profileVersion,2016-10-16 23:04:25
;   baseProfile,
;   printMaterial,PLA
;   printQuality,Medium
;   printExtruders,
;   extruderName,Primary Extruder
;   extruderToolheadNumber,0
;   extruderDiameter,0.4
;   extruderAutoWidth,0
;   extruderWidth,0.4
;   extrusionMultiplier,0.9
;   extruderUseRetract,1
;   extruderRetractionDistance,2
;   extruderExtraRestartDistance,0
;   extruderRetractionZLift,0
;   extruderRetractionSpeed,1800
;   extruderUseCoasting,0
;   extruderCoastingDistance,0.2
;   extruderUseWipe,0
;   extruderWipeDistance,5
;   primaryExtruder,0
;   layerHeight,0.2
;   topSolidLayers,3
;   bottomSolidLayers,3
;   perimeterOutlines,2
;   printPerimetersInsideOut,1
;   startPointOption,2
;   startPointOriginX,0
;   startPointOriginY,0
;   startPointOriginZ,0
;   sequentialIslands,1
;   spiralVaseMode,0
;   firstLayerHeightPercentage,90
;   firstLayerWidthPercentage,90
;   firstLayerUnderspeed,0.5
;   useRaft,0
;   raftExtruder,0
;   raftLayers,3
;   raftOffset,3
;   raftSeparationDistance,0.04
;   raftInfill,85
;   disableRaftBaseLayers,0
;   useSkirt,1
;   skirtExtruder,0
;   skirtLayers,1
;   skirtOutlines,3
;   skirtOffset,8
;   usePrimePillar,0
;   primePillarExtruder,999
;   primePillarWidth,12
;   primePillarLocation,7
;   primePillarSpeedMultiplier,1
;   useOozeShield,0
;   oozeShieldExtruder,999
;   oozeShieldOffset,2
;   oozeShieldOutlines,1
;   oozeShieldSidewallShape,1
;   oozeShieldSidewallAngle,30
;   oozeShieldSpeedMultiplier,1
;   infillExtruder,0
;   internalInfillPattern,Rectilinear
;   externalInfillPattern,Rectilinear
;   infillPercentage,30
;   outlineOverlapPercentage,15
;   infillExtrusionWidthPercentage,100
;   minInfillLength,5
;   infillLayerInterval,1
;   infillAngles,45,-45
;   overlapInfillAngles,0
;   generateSupport,1
;   supportExtruder,0
;   supportInfillPercentage,30
;   supportExtraInflation,0
;   denseSupportLayers,0
;   denseSupportInfillPercentage,70
;   supportLayerInterval,1
;   supportHorizontalPartOffset,0.3
;   supportUpperSeparationLayers,1
;   supportLowerSeparationLayers,1
;   supportType,0
;   supportGridSpacing,4
;   maxOverhangAngle,45
;   supportAngles,0
;   temperatureName,Primary Extruder
;   temperatureNumber,0
;   temperatureSetpointCount,4
;   temperatureSetpointLayers,1,2,3,4
;   temperatureSetpointTemperatures,235,225,220,215
;   temperatureStabilizeAtStartup,1
;   temperatureHeatedBed,0
;   temperatureRelayBetweenLayers,0
;   temperatureRelayBetweenLoops,0
;   fanLayers,1,2
;   fanSpeeds,0,100
;   blipFanToFullPower,0
;   adjustSpeedForCooling,1
;   minSpeedLayerTime,15
;   minCoolingSpeedSlowdown,20
;   increaseFanForCooling,0
;   minFanLayerTime,45
;   maxCoolingFanSpeed,100
;   increaseFanForBridging,0
;   bridgingFanSpeed,100
;   use5D,1
;   relativeEdistances,0
;   allowEaxisZeroing,1
;   independentExtruderAxes,0
;   includeM10123,0
;   stickySupport,1
;   applyToolheadOffsets,0
;   gcodeXoffset,0
;   gcodeYoffset,0
;   gcodeZoffset,0
;   overrideMachineDefinition,1
;   machineTypeOverride,0
;   strokeXoverride,297
;   strokeYoverride,210
;   strokeZoverride,200
;   originOffsetXoverride,0
;   originOffsetYoverride,0
;   originOffsetZoverride,0
;   homeXdirOverride,-1
;   homeYdirOverride,-1
;   homeZdirOverride,-1
;   flipXoverride,1
;   flipYoverride,-1
;   flipZoverride,1
;   toolheadOffsets,0,0|0,0|0,0|0,0|0,0|0,0
;   overrideFirmwareConfiguration,0
;   firmwareTypeOverride,RepRap (Marlin/Repetier/Sprinter)
;   GPXconfigOverride,r2
;   baudRateOverride,115200
;   overridePrinterModels,1
;   printerModelsOverride
;   startingGcode,M800 ; firmware starting routine
;   layerChangeGcode,
;   retractionGcode,
;   toolChangeGcode,
;   endingGcode,M801 ; firmware ending routine
;   exportFileFormat,gcode
;   celebration,0
;   celebrationSong,Random Song
;   postProcessing,
;   defaultSpeed,3600
;   outlineUnderspeed,0.5
;   solidInfillUnderspeed,0.8
;   supportUnderspeed,0.8
;   rapidXYspeed,4800
;   rapidZspeed,1000
;   minBridgingArea,50
;   bridgingExtraInflation,0
;   bridgingExtrusionMultiplier,1
;   bridgingSpeedMultiplier,1
;   filamentDiameter,1.75
;   filamentPricePerKg,46
;   filamentDensity,1.25
;   useMinPrintHeight,0
;   minPrintHeight,0
;   useMaxPrintHeight,0
;   maxPrintHeight,0
;   useDiaphragm,0
;   diaphragmLayerInterval,20
;   robustSlicing,1
;   mergeAllIntoSolid,0
;   onlyRetractWhenCrossingOutline,1
;   retractBetweenLayers,1
;   useRetractionMinTravel,0
;   retractionMinTravel,3
;   retractWhileWiping,1
;   onlyWipeOutlines,0
;   avoidCrossingOutline,1
;   maxMovementDetourFactor,20
;   toolChangeRetractionDistance,12
;   toolChangeExtraRestartDistance,-0.5
;   toolChangeRetractionSpeed,600
;   allowThinWallGapFill,1
;   thinWallAllowedOverlapPercentage,10
;   horizontalSizeCompensation,0
G90
M82
M106 S0
M104 S235 T0
M109 S235 T0
M800 ; firmware starting routine
G92 E0
G1 E-2.0000 F1800
G1 Z0.180 F1000
; layer 1, Z = 0.18
T0
; tool H0.200 W0.360
; skirt
G1 X77.152 Y77.120 F4800
G1 E0.0000 F540
G92 E0
G1 X82.120 Y72.152 E0.1893 F1800
G1 X82.487 Y72.000 E0.2000
G1 X214.513 Y72.000 E3.7568
G1 X214.880 Y72.152 E3.7676
G1 X219.848 Y77.120 E3.9568
G1 X220.000 Y77.487 E3.9675
G1 X220.000 Y100.513 E4.5879
G1 X219.848 Y100.880 E4.5986
G1 X215.728 Y105.000 E4.7555
G1 X219.848 Y109.120 E4.9125
G1 X220.000 Y109.488 E4.9232
G1 X220.000 Y132.513 E5.5435
G1 X219.848 Y132.880 E5.5542
G1 X214.880 Y137.848 E5.7435
G1 X214.513 Y138.000 E5.7542
G1 X82.487 Y138.000 E9.3111
G1 X82.120 Y137.848 E9.3218
G1 X77.152 Y132.880 E9.5111
G1 X77.000 Y132.513 E9.5218
G1 X77.000 Y77.487 E11.0042
G1 X77.152 Y77.120 E11.0149
G1 X77.491 Y77.346 F4800
G92 E0
G1 X82.346 Y72.491 E0.1850 F1800
G1 X82.567 Y72.400 E0.1914
G1 X214.433 Y72.400 E3.7440
G1 X214.654 Y72.491 E3.7504
G1 X219.509 Y77.346 E3.9354
G1 X219.600 Y77.567 E3.9418
G1 X219.600 Y100.433 E4.5578
G1 X219.509 Y100.654 E4.5643
G1 X215.162 Y105.000 E4.7299
G1 X219.509 Y109.347 E4.8955
G1 X219.600 Y109.567 E4.9019
G1 X219.600 Y132.433 E5.5179
G1 X219.509 Y132.654 E5.5244
G1 X214.654 Y137.509 E5.7093
G1 X214.433 Y137.600 E5.7158
G1 X82.567 Y137.600 E9.2683
G1 X82.346 Y137.509 E9.2748
G1 X77.491 Y132.654 E9.4597
G1 X77.400 Y132.433 E9.4662
G1 X77.400 Y77.567 E10.9443
G1 X77.491 Y77.346 E10.9507
G1 X77.830 Y77.573 F4800
G92 E0
G1 X82.573 Y72.830 E0.1807 F1800
G1 X82.647 Y72.800 E0.1828
G1 X214.353 Y72.800 E3.7311
G1 X214.427 Y72.830 E3.7333
G1 X219.170 Y77.573 E3.9139
G1 X219.200 Y77.647 E3.9161
G1 X219.200 Y100.353 E4.5278
G1 X219.170 Y100.427 E4.5300
G1 X214.597 Y105.000 E4.7042
G1 X219.170 Y109.573 E4.8784
G1 X219.200 Y109.647 E4.8806
G1 X219.200 Y132.353 E5.4923
G1 X219.170 Y132.427 E5.4945
G1 X214.427 Y137.170 E5.6752
G1 X214.353 Y137.200 E5.6773
G1 X82.647 Y137.200 E9.2256
G1 X82.573 Y137.170 E9.2277
G1 X77.830 Y132.427 E9.4084
G1 X77.800 Y132.353 E9.4106
G1 X77.800 Y77.647 E10.8844
G1 X77.830 Y77.573 E10.8865
; inner perimeter
G1 X86.540 Y128.460 F4800
G92 E0
G1 X86.540 Y81.540 E1.2641 F1350
G1 X210.460 Y81.540 E4.6026
G1 X210.460 Y86.201 E4.7281
G1 X210.170 Y85.951 E4.7384
G1 X209.970 Y85.819 E4.7449
G1 X209.754 Y85.712 E4.7514
G1 X209.520 Y85.630 E4.7581
G1 X209.272 Y85.578 E4.7649
G1 X209.017 Y85.559 E4.7718
G1 X208.750 Y85.575 E4.7790
G1 X208.494 Y85.626 E4.7860
G1 X208.300 Y85.692 E4.7915
G1 X208.096 Y85.623 E4.7973
G1 X207.845 Y85.574 E4.8042
G1 X207.599 Y85.559 E4.8108
G1 X207.348 Y85.575 E4.8176
G1 X207.104 Y85.623 E4.8243
G1 X206.900 Y85.692 E4.8301
G1 X206.696 Y85.623 E4.8359
G1 X206.445 Y85.574 E4.8428
G1 X206.199 Y85.559 E4.8495
G1 X205.948 Y85.575 E4.8562
G1 X205.704 Y85.623 E4.8630
G1 X205.500 Y85.692 E4.8687
G1 X205.296 Y85.623 E4.8745
G1 X205.045 Y85.574 E4.8814
G1 X204.799 Y85.559 E4.8881
G1 X204.548 Y85.575 E4.8948
G1 X204.304 Y85.623 E4.9016
G1 X204.100 Y85.692 E4.9074
G1 X203.896 Y85.623 E4.9131
G1 X203.645 Y85.574 E4.9200
G1 X203.399 Y85.559 E4.9267
G1 X203.148 Y85.575 E4.9335
G1 X202.904 Y85.623 E4.9402
G1 X202.711 Y85.688 E4.9456
G1 X202.330 Y85.586 E4.9563
G1 X202.000 Y85.558 E4.9652
G1 X201.669 Y85.586 E4.9741
G1 X201.342 Y85.673 E4.9832
G1 X201.027 Y85.819 E4.9926
G1 X200.741 Y86.021 E5.0020
G1 X200.495 Y86.272 E5.0115
G1 X200.300 Y86.561 E5.0209
G1 X200.162 Y86.872 E5.0301
G1 X200.083 Y87.190 E5.0389
G1 X200.058 Y87.502 E5.0473
G1 X200.086 Y87.831 E5.0562
G1 X200.173 Y88.157 E5.0653
G1 X200.319 Y88.473 E5.0747
G1 X200.521 Y88.759 E5.0841
G1 X200.772 Y89.005 E5.0936
G1 X201.061 Y89.200 E5.1030
G1 X201.372 Y89.338 E5.1121
G1 X201.689 Y89.417 E5.1209
G1 X202.002 Y89.442 E5.1294
G1 X202.335 Y89.413 E5.1384
G1 X202.658 Y89.327 E5.1474
G1 X202.699 Y89.308 E5.1486
G1 X202.904 Y89.377 E5.1545
G1 X203.155 Y89.426 E5.1613
G1 X203.401 Y89.441 E5.1680
G1 X203.652 Y89.425 E5.1748
G1 X203.896 Y89.377 E5.1815
G1 X204.100 Y89.308 E5.1873
G1 X204.304 Y89.377 E5.1931
G1 X204.555 Y89.426 E5.1999
G1 X204.801 Y89.441 E5.2066
G1 X205.052 Y89.425 E5.2134
G1 X205.296 Y89.377 E5.2201
G1 X205.500 Y89.308 E5.2259
G1 X205.704 Y89.377 E5.2317
G1 X205.955 Y89.426 E5.2385
G1 X206.201 Y89.441 E5.2452
G1 X206.452 Y89.425 E5.2520
G1 X206.696 Y89.377 E5.2587
G1 X206.900 Y89.308 E5.2645
G1 X207.104 Y89.377 E5.2703
G1 X207.355 Y89.426 E5.2771
G1 X207.601 Y89.441 E5.2838
G1 X207.852 Y89.425 E5.2906
G1 X208.096 Y89.377 E5.2973
G1 X208.301 Y89.308 E5.3031
G1 X208.496 Y89.375 E5.3086
G1 X208.753 Y89.426 E5.3157
G1 X209.017 Y89.441 E5.3228
G1 X209.275 Y89.422 E5.3298
G1 X209.521 Y89.370 E5.3366
G1 X209.754 Y89.289 E5.3432
G1 X209.969 Y89.182 E5.3497
G1 X210.169 Y89.049 E5.3561
G1 X210.460 Y88.800 E5.3665
G1 X210.460 Y96.460 E5.5728
G1 X204.137 Y96.460 E5.7432
G1 X203.592 Y96.471 E5.7579
G1 X203.046 Y96.517 E5.7726
G1 X202.496 Y96.598 E5.7876
G1 X201.970 Y96.711 E5.8021
G1 X201.444 Y96.859 E5.8168
G1 X200.921 Y97.043 E5.8318
G1 X200.403 Y97.263 E5.8469
G1 X199.896 Y97.520 E5.8622
G1 X199.402 Y97.813 E5.8777
G1 X198.925 Y98.141 E5.8933
G1 X198.470 Y98.502 E5.9090
G1 X198.039 Y98.894 E5.9246
G1 X197.636 Y99.314 E5.9403
G1 X197.263 Y99.760 E5.9560
G1 X196.923 Y100.228 E5.9716
G1 X196.617 Y100.715 E5.9871
G1 X196.345 Y101.220 E6.0025
G1 X196.105 Y101.749 E6.0182
G1 X195.904 Y102.285 E6.0336
G1 X195.742 Y102.825 E6.0488
G1 X195.618 Y103.365 E6.0637
G1 X195.531 Y103.901 E6.0783
G1 X195.478 Y104.443 E6.0930
G1 X195.460 Y104.998 E6.1080
G1 X195.471 Y105.441 E6.1199
G1 X195.517 Y105.985 E6.1346
G1 X195.599 Y106.535 E6.1496
G1 X195.713 Y107.060 E6.1641
G1 X195.862 Y107.585 E6.1788
G1 X196.047 Y108.107 E6.1937
G1 X196.270 Y108.623 E6.2088
G1 X196.529 Y109.130 E6.2242
G1 X196.824 Y109.622 E6.2396
G1 X197.154 Y110.097 E6.2552
G1 X197.518 Y110.551 E6.2709
G1 X197.913 Y110.980 E6.2866
G1 X198.336 Y111.382 E6.3023
G1 X198.785 Y111.753 E6.3180
G1 X199.256 Y112.092 E6.3337
G1 X199.746 Y112.396 E6.3492
G1 X200.254 Y112.666 E6.3647
G1 X200.783 Y112.903 E6.3803
G1 X201.319 Y113.101 E6.3957
G1 X201.859 Y113.261 E6.4109
G1 X202.400 Y113.384 E6.4258
G1 X202.967 Y113.473 E6.4413
G1 X203.476 Y113.522 E6.4550
G1 X203.941 Y113.539 E6.4676
G1 X210.460 Y113.540 E6.6432
G1 X210.460 Y121.202 E6.8496
G1 X210.175 Y120.955 E6.8598
G1 X209.970 Y120.819 E6.8664
G1 X209.745 Y120.707 E6.8732
G1 X209.504 Y120.625 E6.8801
G1 X209.252 Y120.575 E6.8870
G1 X208.994 Y120.559 E6.8939
G1 X208.737 Y120.577 E6.9009
G1 X208.487 Y120.628 E6.9078
G1 X208.301 Y120.692 E6.9131
G1 X208.096 Y120.623 E6.9189
G1 X207.845 Y120.574 E6.9258
G1 X207.599 Y120.559 E6.9324
G1 X207.348 Y120.575 E6.9392
G1 X207.104 Y120.623 E6.9459
G1 X206.900 Y120.692 E6.9517
G1 X206.696 Y120.623 E6.9575
G1 X206.445 Y120.574 E6.9644
G1 X206.199 Y120.559 E6.9710
G1 X205.948 Y120.575 E6.9778
G1 X205.704 Y120.623 E6.9845
G1 X205.500 Y120.692 E6.9903
G1 X205.296 Y120.623 E6.9961
G1 X205.045 Y120.574 E7.0030
G1 X204.799 Y120.559 E7.0096
G1 X204.548 Y120.575 E7.0164
G1 X204.304 Y120.623 E7.0231
G1 X204.100 Y120.692 E7.0289
G1 X203.896 Y120.623 E7.0347
G1 X203.645 Y120.574 E7.0416
G1 X203.399 Y120.559 E7.0482
G1 X203.148 Y120.575 E7.0550
G1 X202.904 Y120.623 E7.0617
G1 X202.711 Y120.688 E7.0672
G1 X202.330 Y120.586 E7.0778
G1 X202.000 Y120.558 E7.0867
G1 X201.669 Y120.586 E7.0957
G1 X201.342 Y120.673 E7.1048
G1 X201.027 Y120.819 E7.1142
G1 X200.741 Y121.021 E7.1236
G1 X200.495 Y121.272 E7.1331
G1 X200.300 Y121.561 E7.1425
G1 X200.162 Y121.872 E7.1516
G1 X200.083 Y122.190 E7.1604
G1 X200.058 Y122.502 E7.1689
G1 X200.086 Y122.831 E7.1778
G1 X200.173 Y123.157 E7.1869
G1 X200.319 Y123.473 E7.1962
G1 X200.521 Y123.759 E7.2057
G1 X200.772 Y124.005 E7.2151
G1 X201.061 Y124.200 E7.2245
G1 X201.372 Y124.338 E7.2337
G1 X201.689 Y124.417 E7.2425
G1 X202.002 Y124.442 E7.2509
G1 X202.335 Y124.413 E7.2600
G1 X202.658 Y124.327 E7.2690
G1 X202.699 Y124.308 E7.2702
G1 X202.904 Y124.377 E7.2760
G1 X203.155 Y124.426 E7.2829
G1 X203.401 Y124.441 E7.2895
G1 X203.652 Y124.425 E7.2963
G1 X203.896 Y124.377 E7.3030
G1 X204.100 Y124.308 E7.3088
G1 X204.304 Y124.377 E7.3146
G1 X204.555 Y124.426 E7.3215
G1 X204.801 Y124.441 E7.3281
G1 X205.052 Y124.425 E7.3349
G1 X205.296 Y124.377 E7.3416
G1 X205.500 Y124.308 E7.3474
G1 X205.704 Y124.377 E7.3532
G1 X205.955 Y124.426 E7.3601
G1 X206.201 Y124.441 E7.3667
G1 X206.452 Y124.425 E7.3735
G1 X206.696 Y124.377 E7.3802
G1 X206.900 Y124.308 E7.3860
G1 X207.104 Y124.377 E7.3918
G1 X207.355 Y124.426 E7.3987
G1 X207.601 Y124.441 E7.4053
G1 X207.852 Y124.425 E7.4121
G1 X208.096 Y124.377 E7.4188
G1 X208.301 Y124.308 E7.4246
G1 X208.496 Y124.375 E7.4302
G1 X208.748 Y124.425 E7.4371
G1 X209.006 Y124.441 E7.4441
G1 X209.263 Y124.423 E7.4510
G1 X209.513 Y124.372 E7.4579
G1 X209.751 Y124.290 E7.4647
G1 X209.971 Y124.181 E7.4713
G1 X210.180 Y124.041 E7.4781
G1 X210.460 Y123.796 E7.4881
G1 X210.460 Y128.460 E7.6137
G1 X86.540 Y128.460 E10.9522
; outer perimeter
G1 X86.180 Y81.180 F4800
G92 E0
G1 X210.820 Y81.180 E3.3579 F900
G1 X210.820 Y96.820 E3.7792
G1 X204.141 Y96.820 E3.9592
G1 X203.610 Y96.831 E3.9735
G1 X203.087 Y96.874 E3.9876
G1 X202.560 Y96.953 E4.0020
G1 X202.057 Y97.060 E4.0158
G1 X201.553 Y97.202 E4.0300
G1 X201.051 Y97.378 E4.0443
G1 X200.555 Y97.590 E4.0588
G1 X200.069 Y97.836 E4.0735
G1 X199.596 Y98.117 E4.0883
G1 X199.139 Y98.431 E4.1032
G1 X198.703 Y98.776 E4.1182
G1 X198.291 Y99.152 E4.1333
G1 X197.904 Y99.555 E4.1483
G1 X197.547 Y99.982 E4.1633
G1 X197.221 Y100.430 E4.1782
G1 X196.928 Y100.896 E4.1931
G1 X196.668 Y101.380 E4.2079
G1 X196.438 Y101.886 E4.2228
G1 X196.246 Y102.400 E4.2376
G1 X196.091 Y102.917 E4.2522
G1 X195.972 Y103.434 E4.2664
G1 X195.888 Y103.947 E4.2805
G1 X195.837 Y104.466 E4.2945
G1 X195.820 Y104.999 E4.3089
G1 X195.831 Y105.421 E4.3202
G1 X195.875 Y105.943 E4.3344
G1 X195.954 Y106.471 E4.3487
G1 X196.062 Y106.973 E4.3626
G1 X196.205 Y107.475 E4.3766
G1 X196.383 Y107.976 E4.3909
G1 X196.596 Y108.470 E4.4054
G1 X196.844 Y108.955 E4.4201
G1 X197.127 Y109.427 E4.4349
G1 X197.443 Y109.882 E4.4499
G1 X197.791 Y110.316 E4.4649
G1 X198.169 Y110.728 E4.4799
G1 X198.575 Y111.112 E4.4950
G1 X199.005 Y111.468 E4.5100
G1 X199.457 Y111.792 E4.5250
G1 X199.926 Y112.084 E4.5399
G1 X200.412 Y112.342 E4.5547
G1 X200.919 Y112.569 E4.5697
G1 X201.433 Y112.759 E4.5844
G1 X201.951 Y112.913 E4.5990
G1 X202.468 Y113.030 E4.6133
G1 X203.012 Y113.116 E4.6281
G1 X203.500 Y113.163 E4.6413
G1 X203.948 Y113.179 E4.6534
G1 X210.820 Y113.180 E4.8385
G1 X210.820 Y128.820 E5.2599
G1 X86.180 Y128.820 E8.6178
G1 X86.180 Y81.180 E9.9012
; inner perimeter
G1 X91.056 Y95.909 F4800
G92 E0
G1 X90.528 Y96.300 E0.0177 F1350
G1 X90.077 Y96.689 E0.0337
G1 X89.615 Y97.175 E0.0518
G1 X89.251 Y97.620 E0.0673
G1 X88.894 Y98.146 E0.0844
G1 X88.576 Y98.717 E0.1020
G1 X88.322 Y99.282 E0.1187
G1 X88.112 Y99.873 E0.1356
G1 X87.948 Y100.478 E0.1525
G1 X87.831 Y101.093 E0.1694
G1 X87.757 Y101.716 E0.1863
G1 X87.727 Y102.343 E0.2032
G1 X87.738 Y102.964 E0.2199
G1 X87.789 Y103.581 E0.2366
G1 X87.876 Y104.184 E0.2530
G1 X87.997 Y104.776 E0.2693
G1 X88.152 Y105.360 E0.2856
G1 X88.340 Y105.932 E0.3018
