; G-Code generated by Simplify3D(R) Version 3.1.0
; Jun 25, 2017 at 10:49:13 AM
; Settings Summary
;   processName,Process1
;   applyToModels,mount_plate
;   profileName,bq Witbox 2 (modified)
;   profileVersion,2016-10-16 23:04:25
;   baseProfile,
;   printMaterial,PLA
;   printQuality,Medium
;   printExtruders,
;   extruderName,Primary Extruder
;   extruderToolheadNumber,0
;   extruderDiameter,0.4
;   extruderAutoWidth,0
;   extruderWidth,0.4
;   extrusionMultiplier,0.9
;   extruderUseRetract,1
;   extruderRetractionDistance,2
;   extruderExtraRestartDistance,0
;   extruderRetractionZLift,0
;   extruderRetractionSpeed,1800
;   extruderUseCoasting,0
;   extruderCoastingDistance,0.2
;   extruderUseWipe,0
;   extruderWipeDistance,5
;   primaryExtruder,0
;   layerHeight,0.2
;   topSolidLayers,3
;   bottomSolidLayers,3
;   perimeterOutlines,2
;   printPerimetersInsideOut,1
;   startPointOption,2
;   startPointOriginX,0
;   startPointOriginY,0
;   startPointOriginZ,0
;   sequentialIslands,1
;   spiralVaseMode,0
;   firstLayerHeightPercentage,90
;   firstLayerWidthPercentage,90
;   firstLayerUnderspeed,0.5
;   useRaft,0
;   raftExtruder,0
;   raftLayers,3
;   raftOffset,3
;   raftSeparationDistance,0.04
;   raftInfill,85
;   disableRaftBaseLayers,0
;   useSkirt,1
;   skirtExtruder,0
;   skirtLayers,1
;   skirtOutlines,3
;   skirtOffset,8
;   usePrimePillar,0
;   primePillarExtruder,999
;   primePillarWidth,12
;   primePillarLocation,7
;   primePillarSpeedMultiplier,1
;   useOozeShield,0
;   oozeShieldExtruder,999
;   oozeShieldOffset,2
;   oozeShieldOutlines,1
;   oozeShieldSidewallShape,1
;   oozeShieldSidewallAngle,30
;   oozeShieldSpeedMultiplier,1
;   infillExtruder,0
;   internalInfillPattern,Rectilinear
;   externalInfillPattern,Rectilinear
;   infillPercentage,30
;   outlineOverlapPercentage,15
;   infillExtrusionWidthPercentage,100
;   minInfillLength,5
;   infillLayerInterval,1
;   infillAngles,45,-45
;   overlapInfillAngles,0
;   generateSupport,1
;   supportExtruder,0
;   supportInfillPercentage,30
;   supportExtraInflation,0
;   denseSupportLayers,0
;   denseSupportInfillPercentage,70
;   supportLayerInterval,1
;   supportHorizontalPartOffset,0.3
;   supportUpperSeparationLayers,1
;   supportLowerSeparationLayers,1
;   supportType,0
;   supportGridSpacing,4
;   maxOverhangAngle,45
;   supportAngles,0
;   temperatureName,Primary Extruder
;   temperatureNumber,0
;   temperatureSetpointCount,4
;   temperatureSetpointLayers,1,2,3,4
;   temperatureSetpointTemperatures,235,225,220,215
;   temperatureStabilizeAtStartup,1
;   temperatureHeatedBed,0
;   temperatureRelayBetweenLayers,0
;   temperatureRelayBetweenLoops,0
;   fanLayers,1,2
;   fanSpeeds,0,100
;   blipFanToFullPower,0
;   adjustSpeedForCooling,1
;   minSpeedLayerTime,15
;   minCoolingSpeedSlowdown,20
;   increaseFanForCooling,0
;   minFanLayerTime,45
;   maxCoolingFanSpeed,100
;   increaseFanForBridging,0
;   bridgingFanSpeed,100
;   use5D,1
;   relativeEdistances,0
;   allowEaxisZeroing,1
;   independentExtruderAxes,0
;   includeM10123,0
;   stickySupport,1
;   applyToolheadOffsets,0
;   gcodeXoffset,0
;   gcodeYoffset,0
;   gcodeZoffset,0
;   overrideMachineDefinition,1
;   machineTypeOverride,0
;   strokeXoverride,297
;   strokeYoverride,210
;   strokeZoverride,200
;   originOffsetXoverride,0
;   originOffsetYoverride,0
;   originOffsetZoverride,0
;   homeXdirOverride,-1
;   homeYdirOverride,-1
;   homeZdirOverride,-1
;   flipXoverride,1
;   flipYoverride,-1
;   flipZoverride,1
;   toolheadOffsets,0,0|0,0|0,0|0,0|0,0|0,0
;   overrideFirmwareConfiguration,0
;   firmwareTypeOverride,RepRap (Marlin/Repetier/Sprinter)
;   GPXconfigOverride,r2
;   baudRateOverride,115200
;   overridePrinterModels,1
;   printerModelsOverride
;   startingGcode,M800 ; firmware starting routine
;   layerChangeGcode,
;   retractionGcode,
;   toolChangeGcode,
;   endingGcode,M801 ; firmware ending routine
;   exportFileFormat,gcode
;   celebration,0
;   celebrationSong,Random Song
;   postProcessing,
;   defaultSpeed,3600
;   outlineUnderspeed,0.5
;   solidInfillUnderspeed,0.8
;   supportUnderspeed,0.8
;   rapidXYspeed,4800
;   rapidZspeed,1000
;   minBridgingArea,50
;   bridgingExtraInflation,0
;   bridgingExtrusionMultiplier,1
;   bridgingSpeedMultiplier,1
;   filamentDiameter,1.75
;   filamentPricePerKg,46
;   filamentDensity,1.25
;   useMinPrintHeight,0
;   minPrintHeight,0
;   useMaxPrintHeight,0
;   maxPrintHeight,0
;   useDiaphragm,0
;   diaphragmLayerInterval,20
;   robustSlicing,1
;   mergeAllIntoSolid,0
;   onlyRetractWhenCrossingOutline,1
;   retractBetweenLayers,1
;   useRetractionMinTravel,0
;   retractionMinTravel,3
;   retractWhileWiping,1
;   onlyWipeOutlines,0
;   avoidCrossingOutline,1
;   maxMovementDetourFactor,40
;   toolChangeRetractionDistance,12
;   toolChangeExtraRestartDistance,-0.5
;   toolChangeRetractionSpeed,600
;   allowThinWallGapFill,1
;   thinWallAllowedOverlapPercentage,10
;   horizontalSizeCompensation,0
G90
M82
M106 S0
M104 S235 T0
M109 S235 T0
M800 ; firmware starting routine
G92 E0
G1 E-2.0000 F1800
G1 Z0.180 F1000
; layer 1, Z = 0.18
T0
; tool H0.200 W0.360
; skirt
G1 X74.852 Y77.120 F4800
G1 E0.0000 F540
G92 E0
G1 X79.820 Y72.152 E0.1893 F1800
G1 X80.187 Y72.000 E0.2000
G1 X216.813 Y72.000 E3.8808
G1 X217.180 Y72.152 E3.8915
G1 X222.148 Y77.120 E4.0807
G1 X222.300 Y77.487 E4.0915
G1 X222.300 Y100.513 E4.7118
G1 X222.148 Y100.880 E4.7225
G1 X218.028 Y105.000 E4.8795
G1 X222.148 Y109.120 E5.0364
G1 X222.300 Y109.488 E5.0471
G1 X222.300 Y132.513 E5.6675
G1 X222.148 Y132.880 E5.6782
G1 X217.180 Y137.848 E5.8674
G1 X216.813 Y138.000 E5.8782
G1 X80.187 Y138.000 E9.5589
G1 X79.820 Y137.848 E9.5697
G1 X74.852 Y132.880 E9.7589
G1 X74.700 Y132.513 E9.7696
G1 X74.700 Y77.487 E11.2521
G1 X74.852 Y77.120 E11.2628
G1 X75.191 Y77.346 F4800
G92 E0
G1 X80.046 Y72.491 E0.1850 F1800
G1 X80.267 Y72.400 E0.1914
G1 X216.733 Y72.400 E3.8679
G1 X216.954 Y72.491 E3.8743
G1 X221.809 Y77.346 E4.0593
G1 X221.900 Y77.567 E4.0657
G1 X221.900 Y100.433 E4.6818
G1 X221.809 Y100.654 E4.6882
G1 X217.462 Y105.000 E4.8538
G1 X221.809 Y109.347 E5.0194
G1 X221.900 Y109.567 E5.0258
G1 X221.900 Y132.433 E5.6419
G1 X221.809 Y132.654 E5.6483
G1 X216.954 Y137.509 E5.8333
G1 X216.733 Y137.600 E5.8397
G1 X80.267 Y137.600 E9.5162
G1 X80.046 Y137.509 E9.5226
G1 X75.191 Y132.654 E9.7076
G1 X75.100 Y132.433 E9.7140
G1 X75.100 Y77.567 E11.1922
G1 X75.191 Y77.346 E11.1986
G1 X75.530 Y77.573 F4800
G92 E0
G1 X80.273 Y72.830 E0.1807 F1800
G1 X80.347 Y72.800 E0.1828
G1 X216.653 Y72.800 E3.8550
G1 X216.727 Y72.830 E3.8572
G1 X221.470 Y77.573 E4.0379
G1 X221.500 Y77.647 E4.0400
G1 X221.500 Y100.353 E4.6518
G1 X221.470 Y100.427 E4.6539
G1 X216.897 Y105.000 E4.8281
G1 X221.470 Y109.573 E5.0024
G1 X221.500 Y109.647 E5.0045
G1 X221.500 Y132.353 E5.6162
G1 X221.470 Y132.427 E5.6184
G1 X216.727 Y137.170 E5.7991
G1 X216.653 Y137.200 E5.8012
G1 X80.347 Y137.200 E9.4734
G1 X80.273 Y137.170 E9.4756
G1 X75.530 Y132.427 E9.6563
G1 X75.500 Y132.353 E9.6584
G1 X75.500 Y77.647 E11.1323
G1 X75.530 Y77.573 E11.1344
; inner perimeter
G1 X84.240 Y128.460 F4800
G92 E0
G1 X84.240 Y81.540 E1.2641 F1350
G1 X212.760 Y81.540 E4.7265
G1 X212.760 Y86.201 E4.8520
G1 X212.470 Y85.951 E4.8623
G1 X212.270 Y85.818 E4.8688
G1 X212.054 Y85.712 E4.8753
G1 X211.820 Y85.630 E4.8820
G1 X211.572 Y85.578 E4.8888
G1 X211.317 Y85.559 E4.8957
G1 X211.050 Y85.575 E4.9029
G1 X210.794 Y85.626 E4.9099
G1 X210.600 Y85.692 E4.9154
G1 X210.396 Y85.623 E4.9213
G1 X210.145 Y85.574 E4.9281
G1 X209.899 Y85.559 E4.9348
G1 X209.648 Y85.575 E4.9416
G1 X209.404 Y85.623 E4.9483
G1 X209.200 Y85.692 E4.9541
G1 X208.996 Y85.623 E4.9599
G1 X208.745 Y85.574 E4.9667
G1 X208.499 Y85.559 E4.9734
G1 X208.248 Y85.575 E4.9802
G1 X208.004 Y85.623 E4.9869
G1 X207.800 Y85.692 E4.9927
G1 X207.596 Y85.623 E4.9985
G1 X207.345 Y85.574 E5.0053
G1 X207.099 Y85.559 E5.0120
G1 X206.848 Y85.575 E5.0188
G1 X206.604 Y85.623 E5.0255
G1 X206.400 Y85.692 E5.0313
G1 X206.196 Y85.623 E5.0371
G1 X205.945 Y85.574 E5.0440
G1 X205.699 Y85.559 E5.0506
G1 X205.448 Y85.575 E5.0574
G1 X205.204 Y85.623 E5.0641
G1 X205.011 Y85.688 E5.0696
G1 X204.630 Y85.586 E5.0802
G1 X204.300 Y85.558 E5.0891
G1 X203.969 Y85.586 E5.0980
G1 X203.642 Y85.673 E5.1072
G1 X203.327 Y85.819 E5.1165
G1 X203.041 Y86.021 E5.1259
G1 X202.795 Y86.272 E5.1354
G1 X202.600 Y86.561 E5.1448
G1 X202.462 Y86.872 E5.1540
G1 X202.383 Y87.190 E5.1628
G1 X202.358 Y87.502 E5.1712
G1 X202.386 Y87.831 E5.1801
G1 X202.473 Y88.158 E5.1892
G1 X202.619 Y88.473 E5.1986
G1 X202.821 Y88.759 E5.2080
G1 X203.072 Y89.005 E5.2175
G1 X203.361 Y89.200 E5.2269
G1 X203.672 Y89.338 E5.2361
G1 X203.989 Y89.417 E5.2449
G1 X204.302 Y89.442 E5.2533
G1 X204.635 Y89.413 E5.2623
G1 X204.958 Y89.327 E5.2713
G1 X205.000 Y89.308 E5.2726
G1 X205.204 Y89.377 E5.2784
G1 X205.455 Y89.426 E5.2853
G1 X205.701 Y89.441 E5.2919
G1 X205.952 Y89.425 E5.2987
G1 X206.196 Y89.377 E5.3054
G1 X206.400 Y89.308 E5.3112
G1 X206.604 Y89.377 E5.3170
G1 X206.855 Y89.426 E5.3239
G1 X207.101 Y89.441 E5.3305
G1 X207.352 Y89.425 E5.3373
G1 X207.596 Y89.377 E5.3440
G1 X207.800 Y89.308 E5.3498
G1 X208.004 Y89.377 E5.3556
G1 X208.255 Y89.426 E5.3625
G1 X208.501 Y89.441 E5.3691
G1 X208.752 Y89.425 E5.3759
G1 X208.996 Y89.377 E5.3826
G1 X209.200 Y89.308 E5.3884
G1 X209.404 Y89.377 E5.3942
G1 X209.655 Y89.426 E5.4011
G1 X209.901 Y89.441 E5.4077
G1 X210.152 Y89.425 E5.4145
G1 X210.396 Y89.377 E5.4212
G1 X210.601 Y89.308 E5.4270
G1 X210.796 Y89.375 E5.4326
G1 X211.053 Y89.426 E5.4396
G1 X211.317 Y89.441 E5.4468
G1 X211.575 Y89.422 E5.4537
G1 X211.821 Y89.370 E5.4605
G1 X212.054 Y89.289 E5.4671
G1 X212.269 Y89.182 E5.4736
G1 X212.469 Y89.049 E5.4801
G1 X212.760 Y88.800 E5.4904
G1 X212.760 Y96.460 E5.6968
G1 X206.437 Y96.460 E5.8671
G1 X205.892 Y96.471 E5.8818
G1 X205.346 Y96.517 E5.8966
G1 X204.796 Y96.598 E5.9115
G1 X204.270 Y96.711 E5.9260
G1 X203.744 Y96.859 E5.9407
G1 X203.221 Y97.043 E5.9557
G1 X202.703 Y97.263 E5.9708
G1 X202.196 Y97.520 E5.9862
G1 X201.702 Y97.813 E6.0016
G1 X201.225 Y98.141 E6.0172
G1 X200.770 Y98.502 E6.0329
G1 X200.339 Y98.894 E6.0486
G1 X199.936 Y99.314 E6.0643
G1 X199.563 Y99.760 E6.0799
G1 X199.223 Y100.228 E6.0955
G1 X198.917 Y100.715 E6.1110
G1 X198.645 Y101.220 E6.1265
G1 X198.405 Y101.749 E6.1421
G1 X198.204 Y102.285 E6.1575
G1 X198.042 Y102.825 E6.1727
G1 X197.918 Y103.365 E6.1876
G1 X197.831 Y103.901 E6.2023
G1 X197.778 Y104.443 E6.2169
G1 X197.760 Y104.998 E6.2319
G1 X197.771 Y105.441 E6.2438
G1 X197.817 Y105.985 E6.2585
G1 X197.899 Y106.535 E6.2735
G1 X198.013 Y107.060 E6.2880
G1 X198.162 Y107.585 E6.3027
G1 X198.347 Y108.107 E6.3176
G1 X198.570 Y108.623 E6.3328
G1 X198.829 Y109.130 E6.3481
G1 X199.124 Y109.622 E6.3636
G1 X199.454 Y110.097 E6.3791
G1 X199.818 Y110.551 E6.3948
G1 X200.213 Y110.980 E6.4105
G1 X200.636 Y111.382 E6.4262
G1 X201.085 Y111.753 E6.4419
G1 X201.556 Y112.092 E6.4576
G1 X202.046 Y112.396 E6.4731
G1 X202.554 Y112.666 E6.4886
G1 X203.083 Y112.903 E6.5042
G1 X203.619 Y113.101 E6.5196
G1 X204.159 Y113.261 E6.5348
G1 X204.700 Y113.384 E6.5497
G1 X205.267 Y113.473 E6.5652
G1 X205.776 Y113.522 E6.5790
G1 X206.241 Y113.539 E6.5915
G1 X212.760 Y113.540 E6.7671
G1 X212.760 Y121.202 E6.9736
G1 X212.475 Y120.955 E6.9837
G1 X212.270 Y120.819 E6.9903
G1 X212.045 Y120.707 E6.9971
G1 X211.804 Y120.625 E7.0040
G1 X211.552 Y120.575 E7.0109
G1 X211.294 Y120.559 E7.0179
G1 X211.037 Y120.577 E7.0248
G1 X210.787 Y120.628 E7.0317
G1 X210.601 Y120.692 E7.0370
G1 X210.396 Y120.623 E7.0428
G1 X210.145 Y120.574 E7.0497
G1 X209.899 Y120.559 E7.0563
G1 X209.648 Y120.575 E7.0631
G1 X209.404 Y120.623 E7.0698
G1 X209.200 Y120.692 E7.0756
G1 X208.996 Y120.623 E7.0814
G1 X208.745 Y120.574 E7.0883
G1 X208.499 Y120.559 E7.0949
G1 X208.248 Y120.575 E7.1017
G1 X208.004 Y120.623 E7.1084
G1 X207.800 Y120.692 E7.1142
G1 X207.596 Y120.623 E7.1200
G1 X207.345 Y120.574 E7.1269
G1 X207.099 Y120.559 E7.1335
G1 X206.848 Y120.575 E7.1403
G1 X206.604 Y120.623 E7.1470
G1 X206.400 Y120.692 E7.1528
G1 X206.196 Y120.623 E7.1586
G1 X205.945 Y120.574 E7.1655
G1 X205.699 Y120.559 E7.1721
G1 X205.448 Y120.575 E7.1789
G1 X205.204 Y120.623 E7.1856
G1 X205.011 Y120.688 E7.1911
G1 X204.630 Y120.586 E7.2017
G1 X204.300 Y120.558 E7.2107
G1 X203.969 Y120.586 E7.2196
G1 X203.642 Y120.673 E7.2287
G1 X203.327 Y120.819 E7.2381
G1 X203.041 Y121.021 E7.2475
G1 X202.795 Y121.272 E7.2570
G1 X202.600 Y121.561 E7.2664
G1 X202.462 Y121.872 E7.2755
G1 X202.383 Y122.190 E7.2843
G1 X202.358 Y122.502 E7.2928
G1 X202.386 Y122.831 E7.3017
G1 X202.473 Y123.158 E7.3108
G1 X202.619 Y123.473 E7.3201
G1 X202.821 Y123.759 E7.3296
G1 X203.072 Y124.005 E7.3391
G1 X203.361 Y124.200 E7.3485
G1 X203.672 Y124.338 E7.3576
G1 X203.989 Y124.417 E7.3664
G1 X204.302 Y124.442 E7.3749
G1 X204.635 Y124.413 E7.3839
G1 X204.958 Y124.327 E7.3929
G1 X205.000 Y124.308 E7.3941
G1 X205.204 Y124.377 E7.3999
G1 X205.455 Y124.426 E7.4068
G1 X205.701 Y124.441 E7.4134
G1 X205.952 Y124.425 E7.4202
G1 X206.196 Y124.377 E7.4269
G1 X206.400 Y124.308 E7.4327
G1 X206.604 Y124.377 E7.4385
G1 X206.855 Y124.426 E7.4454
G1 X207.101 Y124.441 E7.4520
G1 X207.352 Y124.425 E7.4588
G1 X207.596 Y124.377 E7.4655
G1 X207.800 Y124.308 E7.4713
G1 X208.004 Y124.377 E7.4771
G1 X208.255 Y124.426 E7.4840
G1 X208.501 Y124.441 E7.4906
G1 X208.752 Y124.425 E7.4974
G1 X208.996 Y124.377 E7.5041
G1 X209.200 Y124.308 E7.5099
G1 X209.404 Y124.377 E7.5157
G1 X209.655 Y124.426 E7.5226
G1 X209.901 Y124.441 E7.5292
G1 X210.152 Y124.425 E7.5360
G1 X210.396 Y124.377 E7.5427
G1 X210.601 Y124.308 E7.5485
G1 X210.796 Y124.375 E7.5541
G1 X211.048 Y124.425 E7.5610
G1 X211.306 Y124.441 E7.5680
G1 X211.563 Y124.423 E7.5749
G1 X211.813 Y124.372 E7.5818
G1 X212.051 Y124.290 E7.5886
G1 X212.271 Y124.181 E7.5952
G1 X212.480 Y124.041 E7.6020
G1 X212.760 Y123.796 E7.6120
G1 X212.760 Y128.460 E7.7376
G1 X84.240 Y128.460 E11.2001
; outer perimeter
G1 X83.880 Y81.180 F4800
G92 E0
G1 X213.120 Y81.180 E3.4818 F900
G1 X213.120 Y96.820 E3.9032
G1 X206.441 Y96.820 E4.0831
G1 X205.910 Y96.831 E4.0974
G1 X205.387 Y96.874 E4.1115
G1 X204.860 Y96.953 E4.1259
G1 X204.357 Y97.060 E4.1398
G1 X203.853 Y97.202 E4.1539
G1 X203.351 Y97.378 E4.1682
G1 X202.855 Y97.590 E4.1827
G1 X202.369 Y97.836 E4.1974
G1 X201.896 Y98.117 E4.2122
G1 X201.440 Y98.431 E4.2272
G1 X201.003 Y98.776 E4.2421
G1 X200.591 Y99.152 E4.2572
G1 X200.204 Y99.555 E4.2722
G1 X199.847 Y99.982 E4.2872
G1 X199.521 Y100.430 E4.3021
G1 X199.228 Y100.896 E4.3170
G1 X198.968 Y101.380 E4.3318
G1 X198.738 Y101.886 E4.3468
G1 X198.546 Y102.400 E4.3615
G1 X198.391 Y102.917 E4.3761
G1 X198.272 Y103.434 E4.3904
G1 X198.188 Y103.947 E4.4044
G1 X198.137 Y104.466 E4.4184
G1 X198.120 Y104.999 E4.4328
G1 X198.131 Y105.421 E4.4442
G1 X198.175 Y105.943 E4.4583
G1 X198.254 Y106.471 E4.4726
G1 X198.362 Y106.973 E4.4865
G1 X198.505 Y107.475 E4.5006
G1 X198.683 Y107.976 E4.5149
G1 X198.896 Y108.470 E4.5294
G1 X199.144 Y108.955 E4.5440
G1 X199.427 Y109.427 E4.5589
G1 X199.743 Y109.882 E4.5738
G1 X200.091 Y110.316 E4.5888
G1 X200.469 Y110.728 E4.6038
G1 X200.875 Y111.112 E4.6189
G1 X201.305 Y111.468 E4.6339
G1 X201.757 Y111.792 E4.6489
G1 X202.226 Y112.084 E4.6638
G1 X202.712 Y112.342 E4.6786
G1 X203.219 Y112.569 E4.6936
G1 X203.733 Y112.759 E4.7084
G1 X204.251 Y112.913 E4.7229
G1 X204.768 Y113.030 E4.7372
G1 X205.312 Y113.116 E4.7520
G1 X205.800 Y113.163 E4.7652
G1 X206.248 Y113.179 E4.7773
G1 X213.120 Y113.180 E4.9625
G1 X213.120 Y128.820 E5.3838
G1 X83.880 Y128.820 E8.8656
G1 X83.880 Y81.180 E10.1491
; inner perimeter
G1 X88.756 Y95.909 F4800
G92 E0
G1 X88.228 Y96.300 E0.0177 F1350
G1 X87.777 Y96.689 E0.0337
G1 X87.315 Y97.175 E0.0518
G1 X86.951 Y97.620 E0.0673
G1 X86.594 Y98.146 E0.0844
G1 X86.276 Y98.717 E0.1020
G1 X86.022 Y99.282 E0.1187
G1 X85.812 Y99.873 E0.1356
G1 X85.648 Y100.478 E0.1525
G1 X85.531 Y101.093 E0.1694
G1 X85.457 Y101.716 E0.1863
G1 X85.427 Y102.343 E0.2032
G1 X85.438 Y102.964 E0.2199
G1 X85.489 Y103.581 E0.2366
G1 X85.576 Y104.184 E0.2530
G1 X85.697 Y104.776 E0.2693
G1 X85.852 Y105.360 E0.2856
G1 X86.040 Y105.932 E0.3018
