; G-Code generated by Simplify3D(R) Version 3.1.0
; Jun 23, 2017 at 11:55:53 AM
; Settings Summary
;   processName,Process1
;   applyToModels,sative_anchorage
;   profileName,bq Witbox 2 (modified)
;   profileVersion,2016-10-16 23:04:25
;   baseProfile,
;   printMaterial,PLA
;   printQuality,Medium
;   printExtruders,
;   extruderName,Primary Extruder
;   extruderToolheadNumber,0
;   extruderDiameter,0.4
;   extruderAutoWidth,0
;   extruderWidth,0.4
;   extrusionMultiplier,0.9
;   extruderUseRetract,1
;   extruderRetractionDistance,2
;   extruderExtraRestartDistance,0
;   extruderRetractionZLift,0
;   extruderRetractionSpeed,1800
;   extruderUseCoasting,0
;   extruderCoastingDistance,0.2
;   extruderUseWipe,0
;   extruderWipeDistance,5
;   primaryExtruder,0
;   layerHeight,0.2
;   topSolidLayers,3
;   bottomSolidLayers,3
;   perimeterOutlines,2
;   printPerimetersInsideOut,1
;   startPointOption,2
;   startPointOriginX,0
;   startPointOriginY,0
;   startPointOriginZ,0
;   sequentialIslands,1
;   spiralVaseMode,0
;   firstLayerHeightPercentage,90
;   firstLayerWidthPercentage,90
;   firstLayerUnderspeed,0.5
;   useRaft,0
;   raftExtruder,0
;   raftLayers,3
;   raftOffset,3
;   raftSeparationDistance,0.04
;   raftInfill,85
;   disableRaftBaseLayers,0
;   useSkirt,1
;   skirtExtruder,0
;   skirtLayers,1
;   skirtOutlines,3
;   skirtOffset,8
;   usePrimePillar,0
;   primePillarExtruder,999
;   primePillarWidth,12
;   primePillarLocation,7
;   primePillarSpeedMultiplier,1
;   useOozeShield,0
;   oozeShieldExtruder,999
;   oozeShieldOffset,2
;   oozeShieldOutlines,1
;   oozeShieldSidewallShape,1
;   oozeShieldSidewallAngle,30
;   oozeShieldSpeedMultiplier,1
;   infillExtruder,0
;   internalInfillPattern,Rectilinear
;   externalInfillPattern,Rectilinear
;   infillPercentage,30
;   outlineOverlapPercentage,15
;   infillExtrusionWidthPercentage,100
;   minInfillLength,5
;   infillLayerInterval,1
;   infillAngles,45,-45
;   overlapInfillAngles,0
;   generateSupport,1
;   supportExtruder,0
;   supportInfillPercentage,30
;   supportExtraInflation,0
;   denseSupportLayers,0
;   denseSupportInfillPercentage,70
;   supportLayerInterval,1
;   supportHorizontalPartOffset,0.3
;   supportUpperSeparationLayers,1
;   supportLowerSeparationLayers,1
;   supportType,0
;   supportGridSpacing,4
;   maxOverhangAngle,45
;   supportAngles,0
;   temperatureName,Primary Extruder
;   temperatureNumber,0
;   temperatureSetpointCount,4
;   temperatureSetpointLayers,1,2,3,4
;   temperatureSetpointTemperatures,235,225,220,215
;   temperatureStabilizeAtStartup,1
;   temperatureHeatedBed,0
;   temperatureRelayBetweenLayers,0
;   temperatureRelayBetweenLoops,0
;   fanLayers,1,2
;   fanSpeeds,0,100
;   blipFanToFullPower,0
;   adjustSpeedForCooling,1
;   minSpeedLayerTime,15
;   minCoolingSpeedSlowdown,20
;   increaseFanForCooling,0
;   minFanLayerTime,45
;   maxCoolingFanSpeed,100
;   increaseFanForBridging,0
;   bridgingFanSpeed,100
;   use5D,1
;   relativeEdistances,0
;   allowEaxisZeroing,1
;   independentExtruderAxes,0
;   includeM10123,0
;   stickySupport,1
;   applyToolheadOffsets,0
;   gcodeXoffset,0
;   gcodeYoffset,0
;   gcodeZoffset,0
;   overrideMachineDefinition,1
;   machineTypeOverride,0
;   strokeXoverride,297
;   strokeYoverride,210
;   strokeZoverride,200
;   originOffsetXoverride,0
;   originOffsetYoverride,0
;   originOffsetZoverride,0
;   homeXdirOverride,-1
;   homeYdirOverride,-1
;   homeZdirOverride,-1
;   flipXoverride,1
;   flipYoverride,-1
;   flipZoverride,1
;   toolheadOffsets,0,0|0,0|0,0|0,0|0,0|0,0
;   overrideFirmwareConfiguration,0
;   firmwareTypeOverride,RepRap (Marlin/Repetier/Sprinter)
;   GPXconfigOverride,r2
;   baudRateOverride,115200
;   overridePrinterModels,1
;   printerModelsOverride
;   startingGcode,M800 ; firmware starting routine
;   layerChangeGcode,
;   retractionGcode,
;   toolChangeGcode,
;   endingGcode,M801 ; firmware ending routine
;   exportFileFormat,gcode
;   celebration,0
;   celebrationSong,Random Song
;   postProcessing,
;   defaultSpeed,3600
;   outlineUnderspeed,0.5
;   solidInfillUnderspeed,0.8
;   supportUnderspeed,0.8
;   rapidXYspeed,4800
;   rapidZspeed,1000
;   minBridgingArea,50
;   bridgingExtraInflation,0
;   bridgingExtrusionMultiplier,1
;   bridgingSpeedMultiplier,1
;   filamentDiameter,1.75
;   filamentPricePerKg,46
;   filamentDensity,1.25
;   useMinPrintHeight,0
;   minPrintHeight,0
;   useMaxPrintHeight,0
;   maxPrintHeight,0
;   useDiaphragm,0
;   diaphragmLayerInterval,20
;   robustSlicing,1
;   mergeAllIntoSolid,0
;   onlyRetractWhenCrossingOutline,1
;   retractBetweenLayers,1
;   useRetractionMinTravel,0
;   retractionMinTravel,3
;   retractWhileWiping,1
;   onlyWipeOutlines,0
;   avoidCrossingOutline,1
;   maxMovementDetourFactor,40
;   toolChangeRetractionDistance,12
;   toolChangeExtraRestartDistance,-0.5
;   toolChangeRetractionSpeed,600
;   allowThinWallGapFill,1
;   thinWallAllowedOverlapPercentage,10
;   horizontalSizeCompensation,0
G90
M82
M106 S0
M104 S235 T0
M109 S235 T0
M800 ; firmware starting routine
G92 E0
G1 E-2.0000 F1800
G1 Z0.180 F1000
; layer 1, Z = 0.18
T0
; tool H0.200 W0.360
; skirt
G1 X109.652 Y76.120 F4800
G1 E0.0000 F540
G92 E0
G1 X114.620 Y71.152 E0.1893 F1800
G1 X114.987 Y71.000 E0.2000
G1 X182.013 Y71.000 E2.0057
G1 X182.380 Y71.152 E2.0164
G1 X187.348 Y76.120 E2.2057
G1 X187.500 Y76.487 E2.2164
G1 X187.500 Y133.513 E3.7527
G1 X187.348 Y133.880 E3.7634
G1 X182.380 Y138.848 E3.9527
G1 X182.013 Y139.000 E3.9634
G1 X114.987 Y139.000 E5.7691
G1 X114.620 Y138.848 E5.7798
G1 X109.652 Y133.880 E5.9691
G1 X109.500 Y133.513 E5.9798
G1 X109.500 Y76.487 E7.5161
G1 X109.652 Y76.120 E7.5268
G1 X109.991 Y76.346 F4800
G92 E0
G1 X114.846 Y71.491 E0.1850 F1800
G1 X115.067 Y71.400 E0.1914
G1 X181.933 Y71.400 E1.9928
G1 X182.154 Y71.491 E1.9993
G1 X187.009 Y76.346 E2.1842
G1 X187.100 Y76.567 E2.1907
G1 X187.100 Y133.433 E3.7227
G1 X187.009 Y133.654 E3.7291
G1 X182.154 Y138.509 E3.9141
G1 X181.933 Y138.600 E3.9205
G1 X115.067 Y138.600 E5.7219
G1 X114.846 Y138.509 E5.7284
G1 X109.991 Y133.654 E5.9134
G1 X109.900 Y133.433 E5.9198
G1 X109.900 Y76.567 E7.4518
G1 X109.991 Y76.346 E7.4582
G1 X110.330 Y76.573 F4800
G92 E0
G1 X115.073 Y71.830 E0.1807 F1800
G1 X115.147 Y71.800 E0.1828
G1 X181.853 Y71.800 E1.9800
G1 X181.927 Y71.830 E1.9821
G1 X186.670 Y76.573 E2.1628
G1 X186.700 Y76.647 E2.1649
G1 X186.700 Y133.353 E3.6927
G1 X186.670 Y133.427 E3.6948
G1 X181.927 Y138.170 E3.8755
G1 X181.853 Y138.200 E3.8776
G1 X115.147 Y138.200 E5.6748
G1 X115.073 Y138.170 E5.6769
G1 X110.330 Y133.427 E5.8576
G1 X110.300 Y133.353 E5.8598
G1 X110.300 Y76.647 E7.3875
G1 X110.330 Y76.573 E7.3896
; inner perimeter
G1 X119.040 Y80.540 F4800
G92 E0
G1 X177.960 Y80.540 E1.5873 F1350
G1 X177.960 Y129.460 E2.9053
G1 X119.040 Y129.460 E4.4926
G1 X119.040 Y80.540 E5.8106
; outer perimeter
G1 X118.680 Y80.180 F4800
G92 E0
G1 X178.320 Y80.180 E1.6067 F900
G1 X178.320 Y129.820 E2.9441
G1 X118.680 Y129.820 E4.5508
G1 X118.680 Y80.180 E5.8882
; inner perimeter
G1 X120.449 Y88.217 F4800
G1 X120.423 Y88.501 F4800
G1 X120.452 Y88.802 F4800
G1 X120.541 Y89.099 F4800
G1 X120.691 Y89.380 F4800
G1 X120.709 Y89.402 F4800
G1 X121.321 Y92.183 F4800
G1 X121.120 Y92.291 F4800
G1 X120.873 Y92.496 F4800
G1 X120.673 Y92.747 F4800
G1 X120.531 Y93.026 F4800
G1 X120.449 Y93.316 F4800
G1 X120.423 Y93.600 F4800
G1 X120.452 Y93.902 F4800
G1 X120.541 Y94.199 F4800
G1 X120.691 Y94.480 F4800
G1 X120.896 Y94.727 F4800
G1 X121.147 Y94.927 F4800
G1 X121.426 Y95.069 F4800
G1 X121.716 Y95.151 F4800
G1 X121.980 Y95.175 F4800
G1 X122.399 Y97.081 F4800
G1 X122.574 Y97.131 F4800
G1 X122.853 Y97.273 F4800
G1 X123.104 Y97.473 F4800
G1 X123.309 Y97.720 F4800
G1 X123.459 Y98.001 F4800
G1 X123.548 Y98.298 F4800
G1 X123.577 Y98.599 F4800
G1 X123.551 Y98.884 F4800
G1 X123.469 Y99.174 F4800
G1 X123.327 Y99.453 F4800
G1 X123.127 Y99.704 F4800
G1 X123.000 Y99.810 F4800
G1 X127.074 Y118.326 F4800
G1 X127.049 Y118.416 F4800
G1 X127.023 Y118.701 F4800
G1 X127.052 Y119.002 F4800
G1 X127.141 Y119.299 F4800
G1 X127.291 Y119.580 F4800
G1 X127.371 Y119.677 F4800
G1 X127.861 Y121.903 F4800
G92 E0
G1 X127.516 Y122.088 E0.0106 F1350
G1 X127.212 Y122.341 E0.0212
G1 X126.966 Y122.649 E0.0318
G1 X126.791 Y122.993 E0.0422
G1 X126.690 Y123.350 E0.0522
G1 X126.658 Y123.702 E0.0617
G1 X126.693 Y124.072 E0.0718
G1 X126.803 Y124.439 E0.0821
G1 X126.988 Y124.784 E0.0926
G1 X127.241 Y125.088 E0.1033
G1 X127.549 Y125.334 E0.1139
G1 X127.893 Y125.509 E0.1243
G1 X128.250 Y125.610 E0.1343
G1 X128.602 Y125.642 E0.1438
G1 X128.972 Y125.607 E0.1538
G1 X129.339 Y125.497 E0.1642
G1 X129.684 Y125.312 E0.1747
G1 X129.988 Y125.059 E0.1854
G1 X130.234 Y124.751 E0.1960
G1 X130.409 Y124.407 E0.2064
G1 X130.510 Y124.050 E0.2164
G1 X130.542 Y123.698 E0.2259
G1 X130.507 Y123.328 E0.2359
G1 X130.397 Y122.961 E0.2462
G1 X130.212 Y122.616 E0.2568
G1 X129.959 Y122.312 E0.2674
G1 X129.651 Y122.066 E0.2781
G1 X129.307 Y121.891 E0.2885
G1 X128.950 Y121.790 E0.2984
G1 X128.598 Y121.758 E0.3080
G1 X128.228 Y121.793 E0.3180
G1 X127.861 Y121.903 E0.3283
; outer perimeter
G1 X127.999 Y122.238 F4800
G92 E0
G1 X127.718 Y122.388 E0.0086 F900
G1 X127.471 Y122.594 E0.0173
G1 X127.270 Y122.845 E0.0259
G1 X127.127 Y123.125 E0.0344
G1 X127.045 Y123.416 E0.0425
G1 X127.019 Y123.701 E0.0502
G1 X127.048 Y124.002 E0.0584
G1 X127.138 Y124.301 E0.0668
G1 X127.288 Y124.582 E0.0754
G1 X127.494 Y124.829 E0.0841
G1 X127.745 Y125.030 E0.0927
G1 X128.025 Y125.173 E0.1012
G1 X128.316 Y125.255 E0.1093
G1 X128.601 Y125.281 E0.1170
G1 X128.902 Y125.252 E0.1252
G1 X129.201 Y125.162 E0.1336
G1 X129.482 Y125.012 E0.1422
G1 X129.729 Y124.806 E0.1508
G1 X129.930 Y124.555 E0.1595
G1 X130.073 Y124.275 E0.1680
G1 X130.155 Y123.984 E0.1761
G1 X130.181 Y123.699 E0.1838
G1 X130.152 Y123.398 E0.1920
G1 X130.062 Y123.099 E0.2004
G1 X129.912 Y122.818 E0.2090
G1 X129.706 Y122.571 E0.2176
G1 X129.455 Y122.370 E0.2263
G1 X129.175 Y122.227 E0.2348
G1 X128.884 Y122.145 E0.2429
G1 X128.599 Y122.119 E0.2506
G1 X128.298 Y122.148 E0.2588
G1 X127.999 Y122.238 E0.2672
; inner perimeter
G1 X121.628 Y121.793 F4800
G92 E0
G1 X121.261 Y121.903 E0.0103 F1350
G1 X120.916 Y122.088 E0.0209
G1 X120.612 Y122.341 E0.0315
G1 X120.366 Y122.649 E0.0421
G1 X120.191 Y122.993 E0.0525
G1 X120.090 Y123.350 E0.0625
G1 X120.058 Y123.702 E0.0721
G1 X120.093 Y124.072 E0.0821
G1 X120.203 Y124.439 E0.0924
G1 X120.388 Y124.784 E0.1029
G1 X120.641 Y125.088 E0.1136
G1 X120.949 Y125.334 E0.1242
G1 X121.293 Y125.509 E0.1346
G1 X121.650 Y125.610 E0.1446
G1 X122.002 Y125.642 E0.1541
G1 X122.372 Y125.607 E0.1642
G1 X122.739 Y125.497 E0.1745
G1 X123.084 Y125.312 E0.1850
G1 X123.388 Y125.059 E0.1957
G1 X123.634 Y124.751 E0.2063
G1 X123.809 Y124.407 E0.2167
G1 X123.910 Y124.050 E0.2267
G1 X123.942 Y123.698 E0.2362
G1 X123.907 Y123.328 E0.2462
G1 X123.797 Y122.961 E0.2565
G1 X123.612 Y122.616 E0.2671
G1 X123.359 Y122.312 E0.2777
G1 X123.051 Y122.066 E0.2884
G1 X122.707 Y121.891 E0.2988
G1 X122.350 Y121.790 E0.3088
G1 X121.998 Y121.758 E0.3183
G1 X121.628 Y121.793 E0.3283
; outer perimeter
G1 X121.698 Y122.148 F4800
G92 E0
G1 X121.399 Y122.238 E0.0084 F900
G1 X121.118 Y122.388 E0.0170
G1 X120.871 Y122.594 E0.0257
G1 X120.670 Y122.845 E0.0343
G1 X120.527 Y123.125 E0.0428
G1 X120.445 Y123.416 E0.0509
G1 X120.419 Y123.701 E0.0586
G1 X120.448 Y124.002 E0.0668
G1 X120.538 Y124.301 E0.0752
G1 X120.688 Y124.582 E0.0838
G1 X120.894 Y124.829 E0.0924
G1 X121.145 Y125.030 E0.1011
G1 X121.425 Y125.173 E0.1096
G1 X121.716 Y125.255 E0.1177
G1 X122.001 Y125.281 E0.1254
G1 X122.302 Y125.252 E0.1336
G1 X122.601 Y125.162 E0.1420
G1 X122.882 Y125.012 E0.1506
G1 X123.129 Y124.806 E0.1592
G1 X123.330 Y124.555 E0.1679
G1 X123.473 Y124.275 E0.1764
G1 X123.555 Y123.984 E0.1845
G1 X123.581 Y123.699 E0.1922
G1 X123.552 Y123.398 E0.2004
G1 X123.462 Y123.099 E0.2088
G1 X123.312 Y122.818 E0.2174
G1 X123.106 Y122.571 E0.2260
G1 X122.855 Y122.370 E0.2347
G1 X122.575 Y122.227 E0.2432
G1 X122.284 Y122.145 E0.2513
G1 X121.999 Y122.119 E0.2590
G1 X121.698 Y122.148 E0.2672
; inner perimeter
G1 X121.673 Y120.239 F4800
G1 X121.426 Y120.169 F4800
G1 X121.147 Y120.027 F4800
G1 X120.896 Y119.827 F4800
G1 X120.691 Y119.580 F4800
G1 X120.541 Y119.299 F4800
G1 X120.452 Y119.002 F4800
G1 X120.423 Y118.701 F4800
G1 X120.449 Y118.416 F4800
G1 X120.531 Y118.126 F4800
G1 X120.673 Y117.847 F4800
G1 X120.873 Y117.596 F4800
G1 X121.120 Y117.391 F4800
G1 X121.401 Y117.241 F4800
G1 X121.633 Y117.171 F4800
G1 X121.628 Y116.793 F4800
G92 E0
G1 X121.261 Y116.903 E0.0103 F1350
G1 X120.916 Y117.088 E0.0209
G1 X120.612 Y117.341 E0.0315
G1 X120.366 Y117.649 E0.0421
G1 X120.191 Y117.993 E0.0525
G1 X120.090 Y118.350 E0.0625
G1 X120.058 Y118.702 E0.0721
G1 X120.093 Y119.072 E0.0821
G1 X120.203 Y119.439 E0.0924
G1 X120.388 Y119.784 E0.1029
G1 X120.641 Y120.088 E0.1136
G1 X120.949 Y120.334 E0.1242
G1 X121.293 Y120.509 E0.1346
G1 X121.650 Y120.610 E0.1446
G1 X122.002 Y120.642 E0.1541
G1 X122.372 Y120.607 E0.1642
G1 X122.739 Y120.497 E0.1745
G1 X123.084 Y120.312 E0.1850
G1 X123.388 Y120.059 E0.1957
G1 X123.634 Y119.751 E0.2063
G1 X123.809 Y119.407 E0.2167
G1 X123.910 Y119.050 E0.2267
G1 X123.942 Y118.698 E0.2362
G1 X123.907 Y118.328 E0.2462
G1 X123.797 Y117.961 E0.2565
G1 X123.612 Y117.616 E0.2671
G1 X123.359 Y117.312 E0.2777
G1 X123.051 Y117.066 E0.2884
G1 X122.707 Y116.891 E0.2988
G1 X122.350 Y116.790 E0.3088
G1 X121.998 Y116.758 E0.3183
G1 X121.628 Y116.793 E0.3283
; outer perimeter
G1 X121.698 Y117.148 F4800
G92 E0
G1 X121.399 Y117.238 E0.0084 F900
G1 X121.118 Y117.388 E0.0170
G1 X120.871 Y117.594 E0.0257
G1 X120.670 Y117.845 E0.0343
G1 X120.527 Y118.125 E0.0428
G1 X120.445 Y118.416 E0.0509
G1 X120.419 Y118.701 E0.0586
G1 X120.448 Y119.002 E0.0668
G1 X120.538 Y119.301 E0.0752
G1 X120.688 Y119.582 E0.0838
G1 X120.894 Y119.829 E0.0924
G1 X121.145 Y120.030 E0.1011
G1 X121.425 Y120.173 E0.1096
G1 X121.716 Y120.255 E0.1177
G1 X122.001 Y120.281 E0.1254
G1 X122.302 Y120.252 E0.1336
G1 X122.601 Y120.162 E0.1420
G1 X122.882 Y120.012 E0.1506
G1 X123.129 Y119.806 E0.1592
G1 X123.330 Y119.555 E0.1679
G1 X123.473 Y119.275 E0.1764
G1 X123.555 Y118.984 E0.1845
G1 X123.581 Y118.699 E0.1922
G1 X123.552 Y118.398 E0.2004
G1 X123.462 Y118.099 E0.2088
G1 X123.312 Y117.818 E0.2174
G1 X123.106 Y117.571 E0.2260
G1 X122.855 Y117.370 E0.2347
G1 X122.575 Y117.227 E0.2432
G1 X122.284 Y117.145 E0.2513
G1 X121.999 Y117.119 E0.2590
G1 X121.698 Y117.148 E0.2672
; inner perimeter
G1 X121.762 Y117.146 F4800
G1 X121.999 Y117.123 F4800
G1 X122.103 Y117.132 F4800
G1 X127.861 Y116.903 F4800
G92 E0
G1 X127.516 Y117.088 E0.0106 F1350
G1 X127.212 Y117.341 E0.0212
G1 X126.966 Y117.649 E0.0318
G1 X126.791 Y117.993 E0.0422
G1 X126.690 Y118.350 E0.0522
G1 X126.658 Y118.702 E0.0617
G1 X126.693 Y119.072 E0.0718
G1 X126.803 Y119.439 E0.0821
G1 X126.988 Y119.784 E0.0926
G1 X127.241 Y120.088 E0.1033
G1 X127.549 Y120.334 E0.1139
G1 X127.893 Y120.509 E0.1243
G1 X128.250 Y120.610 E0.1343
G1 X128.602 Y120.642 E0.1438
G1 X128.972 Y120.607 E0.1538
G1 X129.339 Y120.497 E0.1642
G1 X129.684 Y120.312 E0.1747
G1 X129.988 Y120.059 E0.1854
G1 X130.234 Y119.751 E0.1960
G1 X130.409 Y119.407 E0.2064
G1 X130.510 Y119.050 E0.2164
G1 X130.542 Y118.698 E0.2259
G1 X130.507 Y118.328 E0.2359
G1 X130.397 Y117.961 E0.2462
G1 X130.212 Y117.616 E0.2568
G1 X129.959 Y117.312 E0.2674
G1 X129.651 Y117.066 E0.2781
G1 X129.307 Y116.891 E0.2885
G1 X128.950 Y116.790 E0.2984
G1 X128.598 Y116.758 E0.3080
G1 X128.228 Y116.793 E0.3180
G1 X127.861 Y116.903 E0.3283
; outer perimeter
G1 X127.999 Y117.238 F4800
G92 E0
G1 X127.718 Y117.388 E0.0086 F900
G1 X127.471 Y117.594 E0.0173
G1 X127.270 Y117.845 E0.0259
G1 X127.127 Y118.125 E0.0344
G1 X127.045 Y118.416 E0.0425
G1 X127.019 Y118.701 E0.0502
G1 X127.048 Y119.002 E0.0584
G1 X127.138 Y119.301 E0.0668
G1 X127.288 Y119.582 E0.0754
G1 X127.494 Y119.829 E0.0841
G1 X127.745 Y120.030 E0.0927
G1 X128.025 Y120.173 E0.1012
G1 X128.316 Y120.255 E0.1093
G1 X128.601 Y120.281 E0.1170
G1 X128.902 Y120.252 E0.1252
G1 X129.201 Y120.162 E0.1336
G1 X129.482 Y120.012 E0.1422
