; G-Code generated by Simplify3D(R) Version 3.1.0
; Jun 15, 2017 at 12:40:41 AM
; Settings Summary
;   processName,Process1
;   applyToModels,stand5
;   profileName,bq Witbox 2 (modified)
;   profileVersion,2016-10-16 23:04:25
;   baseProfile,
;   printMaterial,PLA
;   printQuality,Medium
;   printExtruders,
;   extruderName,Primary Extruder
;   extruderToolheadNumber,0
;   extruderDiameter,0.4
;   extruderAutoWidth,0
;   extruderWidth,0.4
;   extrusionMultiplier,0.9
;   extruderUseRetract,1
;   extruderRetractionDistance,2
;   extruderExtraRestartDistance,0
;   extruderRetractionZLift,0
;   extruderRetractionSpeed,1800
;   extruderUseCoasting,0
;   extruderCoastingDistance,0.2
;   extruderUseWipe,0
;   extruderWipeDistance,5
;   primaryExtruder,0
;   layerHeight,0.2
;   topSolidLayers,3
;   bottomSolidLayers,3
;   perimeterOutlines,2
;   printPerimetersInsideOut,1
;   startPointOption,2
;   startPointOriginX,0
;   startPointOriginY,0
;   startPointOriginZ,0
;   sequentialIslands,1
;   spiralVaseMode,0
;   firstLayerHeightPercentage,90
;   firstLayerWidthPercentage,90
;   firstLayerUnderspeed,0.5
;   useRaft,0
;   raftExtruder,0
;   raftLayers,3
;   raftOffset,3
;   raftSeparationDistance,0.04
;   raftInfill,85
;   disableRaftBaseLayers,0
;   useSkirt,1
;   skirtExtruder,0
;   skirtLayers,1
;   skirtOutlines,3
;   skirtOffset,8
;   usePrimePillar,0
;   primePillarExtruder,999
;   primePillarWidth,12
;   primePillarLocation,7
;   primePillarSpeedMultiplier,1
;   useOozeShield,0
;   oozeShieldExtruder,999
;   oozeShieldOffset,2
;   oozeShieldOutlines,1
;   oozeShieldSidewallShape,1
;   oozeShieldSidewallAngle,30
;   oozeShieldSpeedMultiplier,1
;   infillExtruder,0
;   internalInfillPattern,Rectilinear
;   externalInfillPattern,Rectilinear
;   infillPercentage,30
;   outlineOverlapPercentage,15
;   infillExtrusionWidthPercentage,100
;   minInfillLength,5
;   infillLayerInterval,1
;   infillAngles,45,-45
;   overlapInfillAngles,0
;   generateSupport,1
;   supportExtruder,0
;   supportInfillPercentage,30
;   supportExtraInflation,0
;   denseSupportLayers,0
;   denseSupportInfillPercentage,70
;   supportLayerInterval,1
;   supportHorizontalPartOffset,0.3
;   supportUpperSeparationLayers,1
;   supportLowerSeparationLayers,1
;   supportType,0
;   supportGridSpacing,4
;   maxOverhangAngle,45
;   supportAngles,0
;   temperatureName,Primary Extruder
;   temperatureNumber,0
;   temperatureSetpointCount,4
;   temperatureSetpointLayers,1,2,3,4
;   temperatureSetpointTemperatures,235,225,220,215
;   temperatureStabilizeAtStartup,1
;   temperatureHeatedBed,0
;   temperatureRelayBetweenLayers,0
;   temperatureRelayBetweenLoops,0
;   fanLayers,1,2
;   fanSpeeds,0,100
;   blipFanToFullPower,0
;   adjustSpeedForCooling,1
;   minSpeedLayerTime,15
;   minCoolingSpeedSlowdown,20
;   increaseFanForCooling,0
;   minFanLayerTime,45
;   maxCoolingFanSpeed,100
;   increaseFanForBridging,0
;   bridgingFanSpeed,100
;   use5D,1
;   relativeEdistances,0
;   allowEaxisZeroing,1
;   independentExtruderAxes,0
;   includeM10123,0
;   stickySupport,1
;   applyToolheadOffsets,0
;   gcodeXoffset,0
;   gcodeYoffset,0
;   gcodeZoffset,0
;   overrideMachineDefinition,1
;   machineTypeOverride,0
;   strokeXoverride,297
;   strokeYoverride,210
;   strokeZoverride,200
;   originOffsetXoverride,0
;   originOffsetYoverride,0
;   originOffsetZoverride,0
;   homeXdirOverride,-1
;   homeYdirOverride,-1
;   homeZdirOverride,-1
;   flipXoverride,1
;   flipYoverride,-1
;   flipZoverride,1
;   toolheadOffsets,0,0|0,0|0,0|0,0|0,0|0,0
;   overrideFirmwareConfiguration,0
;   firmwareTypeOverride,RepRap (Marlin/Repetier/Sprinter)
;   GPXconfigOverride,r2
;   baudRateOverride,115200
;   overridePrinterModels,1
;   printerModelsOverride
;   startingGcode,M800 ; firmware starting routine
;   layerChangeGcode,
;   retractionGcode,
;   toolChangeGcode,
;   endingGcode,M801 ; firmware ending routine
;   exportFileFormat,gcode
;   celebration,0
;   celebrationSong,Random Song
;   postProcessing,
;   defaultSpeed,3600
;   outlineUnderspeed,0.5
;   solidInfillUnderspeed,0.8
;   supportUnderspeed,0.8
;   rapidXYspeed,4800
;   rapidZspeed,1000
;   minBridgingArea,50
;   bridgingExtraInflation,0
;   bridgingExtrusionMultiplier,1
;   bridgingSpeedMultiplier,1
;   filamentDiameter,1.75
;   filamentPricePerKg,46
;   filamentDensity,1.25
;   useMinPrintHeight,0
;   minPrintHeight,0
;   useMaxPrintHeight,0
;   maxPrintHeight,0
;   useDiaphragm,0
;   diaphragmLayerInterval,20
;   robustSlicing,1
;   mergeAllIntoSolid,0
;   onlyRetractWhenCrossingOutline,1
;   retractBetweenLayers,1
;   useRetractionMinTravel,0
;   retractionMinTravel,3
;   retractWhileWiping,1
;   onlyWipeOutlines,0
;   avoidCrossingOutline,1
;   maxMovementDetourFactor,20
;   toolChangeRetractionDistance,12
;   toolChangeExtraRestartDistance,-0.5
;   toolChangeRetractionSpeed,600
;   allowThinWallGapFill,1
;   thinWallAllowedOverlapPercentage,10
;   horizontalSizeCompensation,0
G90
M82
M106 S0
M104 S235 T0
M109 S235 T0
M800 ; firmware starting routine
G92 E0
G1 E-2.0000 F1800
G1 Z0.180 F1000
; layer 1, Z = 0.18
T0
; tool H0.200 W0.360
; skirt
G1 X109.398 Y78.202 F4800
G1 E0.0000 F540
G92 E0
G1 X114.366 Y73.235 E0.1893 F1800
G1 X114.733 Y73.082 E0.2000
G1 X182.267 Y73.082 E2.0194
G1 X182.634 Y73.235 E2.0301
G1 X187.602 Y78.202 E2.2194
G1 X187.754 Y78.570 E2.2301
G1 X187.754 Y131.430 E3.6542
G1 X187.602 Y131.798 E3.6649
G1 X182.634 Y136.765 E3.8542
G1 X182.267 Y136.918 E3.8649
G1 X114.733 Y136.918 E5.6843
G1 X114.366 Y136.765 E5.6950
G1 X109.398 Y131.798 E5.8843
G1 X109.246 Y131.430 E5.8950
G1 X109.246 Y78.570 E7.3191
G1 X109.398 Y78.202 E7.3298
G1 X109.737 Y78.429 F4800
G92 E0
G1 X114.592 Y73.574 E0.1850 F1800
G1 X114.813 Y73.482 E0.1914
G1 X182.187 Y73.482 E2.0065
G1 X182.408 Y73.574 E2.0130
G1 X187.263 Y78.429 E2.1979
G1 X187.354 Y78.649 E2.2044
G1 X187.354 Y131.351 E3.6242
G1 X187.263 Y131.571 E3.6306
G1 X182.408 Y136.426 E3.8156
G1 X182.187 Y136.518 E3.8220
G1 X114.813 Y136.518 E5.6371
G1 X114.592 Y136.426 E5.6436
G1 X109.737 Y131.571 E5.8285
G1 X109.646 Y131.351 E5.8350
G1 X109.646 Y78.649 E7.2548
G1 X109.737 Y78.429 E7.2612
G1 X110.076 Y78.655 F4800
G92 E0
G1 X114.819 Y73.913 E0.1807 F1800
G1 X114.892 Y73.882 E0.1828
G1 X182.108 Y73.882 E1.9937
G1 X182.181 Y73.913 E1.9958
G1 X186.924 Y78.655 E2.1765
G1 X186.954 Y78.729 E2.1786
G1 X186.954 Y131.271 E3.5942
G1 X186.924 Y131.345 E3.5963
G1 X182.181 Y136.087 E3.7770
G1 X182.108 Y136.118 E3.7791
G1 X114.892 Y136.118 E5.5900
G1 X114.819 Y136.087 E5.5921
G1 X110.076 Y131.345 E5.7728
G1 X110.046 Y131.271 E5.7750
G1 X110.046 Y78.729 E7.1905
G1 X110.076 Y78.655 E7.1926
; inner perimeter
G1 X118.786 Y82.622 F4800
G92 E0
G1 X178.214 Y82.622 E1.6010 F1350
G1 X178.214 Y99.064 E2.0440
G1 X177.965 Y99.099 E2.0508
G1 X177.738 Y98.284 E2.0736
G1 X177.528 Y97.685 E2.0907
G1 X177.449 Y97.355 E2.0998
G1 X177.269 Y96.737 E2.1171
G1 X177.158 Y96.433 E2.1259
G1 X176.901 Y95.896 E2.1419
G1 X176.755 Y95.542 E2.1522
G1 X176.232 Y94.556 E2.1823
G1 X175.923 Y94.063 E2.1980
G1 X174.360 Y91.999 E2.2677
G1 X173.974 Y91.433 E2.2862
G1 X173.331 Y90.650 E2.3135
G1 X172.534 Y89.828 E2.3443
G1 X172.301 Y89.604 E2.3530
G1 X171.568 Y88.963 E2.3792
G1 X170.945 Y88.374 E2.4023
G1 X170.229 Y87.794 E2.4272
G1 X169.633 Y87.263 E2.4487
G1 X168.891 Y86.670 E2.4743
G1 X168.356 Y86.296 E2.4918
G1 X167.833 Y86.007 E2.5080
G1 X167.190 Y85.700 E2.5271
G1 X166.667 Y85.507 E2.5422
G1 X165.797 Y85.145 E2.5676
G1 X163.234 Y84.299 E2.6403
G1 X162.766 Y84.202 E2.6531
G1 X161.605 Y83.878 E2.6856
G1 X161.121 Y83.765 E2.6990
G1 X160.527 Y83.646 E2.7153
G1 X159.612 Y83.491 E2.7403
G1 X159.050 Y83.369 E2.7558
G1 X158.446 Y83.282 E2.7723
G1 X158.051 Y83.245 E2.7829
G1 X157.511 Y83.063 E2.7983
G1 X156.747 Y82.984 E2.8190
G1 X155.732 Y82.919 E2.8464
G1 X155.271 Y82.907 E2.8588
G1 X154.904 Y82.934 E2.8687
G1 X153.151 Y82.989 E2.9160
G1 X152.681 Y83.073 E2.9289
G1 X152.211 Y83.133 E2.9416
G1 X151.375 Y83.314 E2.9647
G1 X150.786 Y83.475 E2.9811
G1 X149.140 Y83.966 E3.0274
G1 X147.964 Y84.386 E3.0610
G1 X147.627 Y84.522 E3.0708
G1 X147.416 Y84.629 E3.0772
G1 X147.262 Y84.677 E3.0815
G1 X147.015 Y84.782 E3.0888
G1 X146.621 Y84.963 E3.1004
G1 X145.741 Y85.454 E3.1276
G1 X145.146 Y85.839 E3.1467
G1 X144.786 Y86.108 E3.1588
G1 X144.251 Y86.560 E3.1777
G1 X143.984 Y86.749 E3.1865
G1 X143.393 Y87.206 E3.2066
G1 X142.863 Y87.643 E3.2251
G1 X142.339 Y88.151 E3.2448
G1 X141.177 Y89.137 E3.2858
G1 X140.245 Y90.012 E3.3203
G1 X139.254 Y91.086 E3.3596
G1 X138.460 Y92.019 E3.3927
G1 X138.235 Y92.255 E3.4014
G1 X138.030 Y92.447 E3.4090
G1 X137.292 Y93.070 E3.4350
G1 X136.975 Y93.315 E3.4458
G1 X135.439 Y94.199 E3.4935
G1 X134.510 Y94.647 E3.5213
G1 X134.350 Y94.711 E3.5260
G1 X134.196 Y94.742 E3.5302
G1 X133.608 Y94.981 E3.5473
G1 X132.401 Y95.557 E3.5833
G1 X132.205 Y95.623 E3.5889
G1 X132.069 Y95.689 E3.5930
G1 X131.482 Y95.886 E3.6096
G1 X130.948 Y96.096 E3.6251
G1 X130.496 Y96.303 E3.6385
G1 X130.323 Y96.419 E3.6441
G1 X128.971 Y96.936 E3.6831
G1 X128.615 Y97.043 E3.6931
G1 X127.442 Y97.555 E3.7276
G1 X126.369 Y97.971 E3.7586
G1 X125.736 Y98.311 E3.7780
G1 X124.955 Y98.690 E3.8014
G1 X124.296 Y98.914 E3.8201
G1 X124.019 Y99.029 E3.8282
G1 X123.760 Y99.157 E3.8360
G1 X123.601 Y99.263 E3.8411
G1 X123.479 Y99.320 E3.8448
G1 X122.378 Y99.716 E3.8763
G1 X122.134 Y99.864 E3.8840
G1 X121.755 Y100.173 E3.8971
G1 X121.547 Y100.355 E3.9046
G1 X121.113 Y100.766 E3.9207
G1 X120.924 Y100.987 E3.9285
G1 X120.521 Y101.563 E3.9475
G1 X120.207 Y102.113 E3.9645
G1 X120.107 Y102.354 E3.9715
G1 X119.913 Y102.948 E3.9884
G1 X119.700 Y103.444 E4.0029
G1 X119.546 Y103.850 E4.0146
G1 X119.325 Y104.492 E4.0329
G1 X119.201 Y104.952 E4.0458
G1 X119.104 Y105.583 E4.0629
G1 X119.057 Y105.980 E4.0737
G1 X118.786 Y105.964 E4.0810
G1 X118.786 Y82.622 E4.7099
G1 X119.018 Y109.848 F4800
G92 E0
G1 X119.460 Y110.921 E0.0313 F1350
G1 X120.149 Y112.090 E0.0678
G1 X120.396 Y112.456 E0.0797
G1 X120.600 Y112.709 E0.0885
G1 X120.724 Y112.825 E0.0930
G1 X120.859 Y112.902 E0.0973
G1 X121.671 Y113.637 E0.1268
G1 X121.939 Y113.939 E0.1376
G1 X122.227 Y114.167 E0.1475
G1 X122.610 Y114.395 E0.1595
G1 X123.001 Y114.590 E0.1713
G1 X123.001 Y115.609 E0.1988
G1 X127.513 Y115.609 E0.3203
G1 X127.662 Y115.785 E0.3265
G1 X128.048 Y116.386 E0.3458
G1 X128.248 Y116.742 E0.3568
G1 X128.848 Y117.908 E0.3921
G1 X128.940 Y118.166 E0.3995
G1 X129.132 Y118.518 E0.4103
G1 X129.488 Y119.130 E0.4294
G1 X129.856 Y119.646 E0.4464
G1 X130.187 Y120.175 E0.4632
G1 X130.385 Y120.599 E0.4758
G1 X130.585 Y121.126 E0.4910
G1 X130.688 Y121.310 E0.4967
G1 X131.314 Y122.178 E0.5255
G1 X131.978 Y122.952 E0.5530
G1 X132.287 Y123.361 E0.5668
G1 X132.500 Y123.545 E0.5744
G1 X132.965 Y123.847 E0.5894
G1 X133.530 Y124.162 E0.6068
G1 X133.966 Y124.361 E0.6197
G1 X134.303 Y124.471 E0.6292
G1 X134.640 Y124.554 E0.6386
G1 X134.857 Y124.588 E0.6445
G1 X135.173 Y124.608 E0.6530
G1 X135.421 Y124.670 E0.6599
G1 X135.814 Y124.618 E0.6706
G1 X136.009 Y124.610 E0.6759
G1 X136.418 Y124.632 E0.6869
G1 X137.311 Y124.742 E0.7111
G1 X138.298 Y124.824 E0.7378
G1 X138.476 Y124.846 E0.7426
G1 X138.794 Y124.917 E0.7514
G1 X139.019 Y124.935 E0.7575
G1 X142.600 Y125.082 E0.8541
G1 X143.715 Y125.161 E0.8842
G1 X144.906 Y125.213 E0.9163
G1 X146.121 Y125.316 E0.9492
G1 X147.623 Y125.576 E0.9902
G1 X148.288 Y125.729 E1.0086
G1 X148.495 Y125.790 E1.0144
G1 X149.179 Y126.052 E1.0341
G1 X149.449 Y126.136 E1.0418
G1 X149.763 Y126.256 E1.0508
G1 X150.350 Y126.428 E1.0673
G1 X151.001 Y126.592 E1.0854
G1 X151.696 Y126.710 E1.1044
G1 X152.139 Y126.826 E1.1167
G1 X153.453 Y127.028 E1.1525
G1 X153.919 Y127.117 E1.1653
G1 X153.894 Y127.378 E1.1724
G1 X118.786 Y127.378 E2.1182
G1 X118.786 Y109.894 E2.5892
G1 X119.018 Y109.848 E2.5956
G1 X119.495 Y110.051 F4800
G1 X119.786 Y110.759 F4800
G1 X120.457 Y111.897 F4800
G1 X120.689 Y112.240 F4800
G1 X120.866 Y112.461 F4800
G1 X120.941 Y112.530 F4800
G1 X121.074 Y112.606 F4800
G1 X121.930 Y113.381 F4800
G1 X122.190 Y113.674 F4800
G1 X122.434 Y113.867 F4800
G1 X122.784 Y114.076 F4800
G1 X123.112 Y114.239 F4800
G1 X123.363 Y114.324 F4800
G1 X123.364 Y114.324 F4800
G1 X123.364 Y115.246 F4800
G1 X127.682 Y115.246 F4800
G1 X127.955 Y115.569 F4800
G1 X128.359 Y116.199 F4800
G1 X128.568 Y116.569 F4800
G1 X129.182 Y117.763 F4800
G1 X129.273 Y118.017 F4800
G1 X129.449 Y118.340 F4800
G1 X129.794 Y118.932 F4800
G1 X130.159 Y119.444 F4800
G1 X130.507 Y120.002 F4800
G1 X130.720 Y120.457 F4800
G1 X130.915 Y120.972 F4800
G1 X130.995 Y121.114 F4800
G1 X131.600 Y121.952 F4800
G1 X132.261 Y122.723 F4800
G1 X132.554 Y123.111 F4800
G1 X132.719 Y123.254 F4800
G1 X133.153 Y123.535 F4800
G1 X133.695 Y123.838 F4800
G1 X134.099 Y124.022 F4800
G1 X134.403 Y124.122 F4800
G1 X134.711 Y124.197 F4800
G1 X134.897 Y124.226 F4800
G1 X135.229 Y124.247 F4800
G1 X135.442 Y124.300 F4800
G1 X135.783 Y124.255 F4800
G1 X136.012 Y124.246 F4800
G1 X136.450 Y124.270 F4800
G1 X137.348 Y124.380 F4800
G1 X138.336 Y124.462 F4800
G1 X138.538 Y124.487 F4800
G1 X138.849 Y124.556 F4800
G1 X139.041 Y124.572 F4800
G1 X142.620 Y124.719 F4800
G1 X143.736 Y124.798 F4800
G1 X144.929 Y124.850 F4800
G1 X146.168 Y124.955 F4800
G1 X147.695 Y125.219 F4800
G1 X148.380 Y125.377 F4800
G1 X148.612 Y125.445 F4800
G1 X149.298 Y125.709 F4800
G1 X149.568 Y125.792 F4800
G1 X149.879 Y125.911 F4800
G1 X150.445 Y126.077 F4800
G1 X151.076 Y126.235 F4800
G1 X151.772 Y126.354 F4800
G1 X152.213 Y126.469 F4800
G1 X153.515 Y126.669 F4800
G1 X154.052 Y126.772 F4800
G1 X154.255 Y126.791 F4800
G1 X155.724 Y126.845 F4800
G1 X157.170 Y126.852 F4800
G1 X158.130 Y126.833 F4800
G1 X158.718 Y126.800 F4800
G1 X159.442 Y127.109 F4800
G92 E0
G1 X159.965 Y127.037 E0.0142 F1350
G1 X160.755 Y126.971 E0.0356
G1 X161.122 Y126.921 E0.0456
G1 X161.962 Y126.706 E0.0689
G1 X162.455 Y126.544 E0.0829
G1 X162.912 Y126.430 E0.0956
G1 X163.335 Y126.297 E0.1075
G1 X164.020 Y126.067 E0.1270
G1 X164.270 Y125.966 E0.1343
G1 X165.439 Y125.446 E0.1687
G1 X165.871 Y125.199 E0.1821
G1 X166.018 Y125.129 E0.1865
G1 X166.691 Y124.860 E0.2061
G1 X166.995 Y124.685 E0.2155
G1 X167.647 Y124.248 E0.2367
G1 X168.652 Y123.708 E0.2674
G1 X169.026 Y123.487 E0.2791
G1 X169.441 Y123.189 E0.2929
G1 X170.040 Y122.684 E0.3140
G1 X170.759 Y122.115 E0.3387
G1 X171.376 Y121.700 E0.3587
G1 X171.678 Y121.469 E0.3690
G1 X172.102 Y121.066 E0.3847
G1 X172.674 Y120.487 E0.4066
G1 X173.204 Y119.893 E0.4281
G1 X173.482 Y119.643 E0.4382
G1 X174.494 Y118.384 E0.4817
G1 X174.658 Y118.148 E0.4894
G1 X174.771 Y117.950 E0.4956
G1 X175.639 Y116.788 E0.5346
G1 X176.066 Y116.148 E0.5554
G1 X176.349 Y115.598 E0.5720
G1 X176.710 Y114.781 E0.5961
G1 X176.828 Y114.437 E0.6059
G1 X176.893 Y114.188 E0.6128
G1 X177.019 Y113.882 E0.6217
G1 X177.524 Y112.761 E0.6548
G1 X177.649 Y112.355 E0.6663
G1 X177.719 Y111.970 E0.6768
G1 X177.751 Y111.456 E0.6907
G1 X177.765 Y111.376 E0.6929
G1 X177.968 Y110.704 E0.7118
G1 X178.214 Y110.741 E0.7185
G1 X178.214 Y127.378 E1.1667
G1 X159.460 Y127.378 E1.6720
G1 X159.442 Y127.109 E1.6792
; outer perimeter
G1 X159.138 Y126.777 F4800
G1 X158.130 Y126.833 F4800
G1 X157.170 Y126.852 F4800
G1 X155.724 Y126.845 F4800
G1 X154.255 Y126.791 F4800
G1 X154.052 Y126.772 F4800
G1 X153.515 Y126.669 F4800
G1 X152.213 Y126.469 F4800
G1 X151.772 Y126.354 F4800
G1 X151.076 Y126.235 F4800
G1 X150.445 Y126.077 F4800
G1 X149.879 Y125.911 F4800
G1 X149.568 Y125.792 F4800
G1 X149.298 Y125.709 F4800
G1 X148.612 Y125.445 F4800
G1 X148.380 Y125.377 F4800
G1 X147.695 Y125.219 F4800
G1 X146.168 Y124.955 F4800
G1 X144.929 Y124.850 F4800
G1 X143.736 Y124.798 F4800
G1 X142.620 Y124.719 F4800
G1 X139.041 Y124.572 F4800
G1 X138.849 Y124.556 F4800
G1 X138.538 Y124.487 F4800
G1 X138.336 Y124.462 F4800
G1 X137.348 Y124.380 F4800
G1 X136.450 Y124.270 F4800
G1 X136.012 Y124.246 F4800
G1 X135.783 Y124.255 F4800
G1 X135.442 Y124.300 F4800
G1 X135.229 Y124.247 F4800
G1 X134.897 Y124.226 F4800
G1 X134.711 Y124.197 F4800
G1 X134.403 Y124.122 F4800
G1 X134.099 Y124.022 F4800
G1 X133.695 Y123.838 F4800
G1 X133.153 Y123.535 F4800
G1 X132.719 Y123.254 F4800
