; G-Code generated by Simplify3D(R) Version 3.1.0
; Jun 22, 2017 at 4:34:52 AM
; Settings Summary
;   processName,Process1
;   applyToModels,transfer_gear
;   profileName,bq Witbox 2 (modified)
;   profileVersion,2016-10-16 23:04:25
;   baseProfile,
;   printMaterial,PLA
;   printQuality,Medium
;   printExtruders,
;   extruderName,Primary Extruder
;   extruderToolheadNumber,0
;   extruderDiameter,0.4
;   extruderAutoWidth,0
;   extruderWidth,0.4
;   extrusionMultiplier,0.9
;   extruderUseRetract,1
;   extruderRetractionDistance,2
;   extruderExtraRestartDistance,0
;   extruderRetractionZLift,0
;   extruderRetractionSpeed,1800
;   extruderUseCoasting,0
;   extruderCoastingDistance,0.2
;   extruderUseWipe,0
;   extruderWipeDistance,5
;   primaryExtruder,0
;   layerHeight,0.2
;   topSolidLayers,3
;   bottomSolidLayers,3
;   perimeterOutlines,2
;   printPerimetersInsideOut,1
;   startPointOption,2
;   startPointOriginX,0
;   startPointOriginY,0
;   startPointOriginZ,0
;   sequentialIslands,1
;   spiralVaseMode,0
;   firstLayerHeightPercentage,90
;   firstLayerWidthPercentage,90
;   firstLayerUnderspeed,0.5
;   useRaft,0
;   raftExtruder,0
;   raftLayers,3
;   raftOffset,3
;   raftSeparationDistance,0.04
;   raftInfill,85
;   disableRaftBaseLayers,0
;   useSkirt,1
;   skirtExtruder,0
;   skirtLayers,1
;   skirtOutlines,3
;   skirtOffset,8
;   usePrimePillar,0
;   primePillarExtruder,999
;   primePillarWidth,12
;   primePillarLocation,7
;   primePillarSpeedMultiplier,1
;   useOozeShield,0
;   oozeShieldExtruder,999
;   oozeShieldOffset,2
;   oozeShieldOutlines,1
;   oozeShieldSidewallShape,1
;   oozeShieldSidewallAngle,30
;   oozeShieldSpeedMultiplier,1
;   infillExtruder,0
;   internalInfillPattern,Rectilinear
;   externalInfillPattern,Rectilinear
;   infillPercentage,30
;   outlineOverlapPercentage,15
;   infillExtrusionWidthPercentage,100
;   minInfillLength,5
;   infillLayerInterval,1
;   infillAngles,45,-45
;   overlapInfillAngles,0
;   generateSupport,1
;   supportExtruder,0
;   supportInfillPercentage,30
;   supportExtraInflation,0
;   denseSupportLayers,0
;   denseSupportInfillPercentage,70
;   supportLayerInterval,1
;   supportHorizontalPartOffset,0.3
;   supportUpperSeparationLayers,1
;   supportLowerSeparationLayers,1
;   supportType,0
;   supportGridSpacing,4
;   maxOverhangAngle,45
;   supportAngles,0
;   temperatureName,Primary Extruder
;   temperatureNumber,0
;   temperatureSetpointCount,4
;   temperatureSetpointLayers,1,2,3,4
;   temperatureSetpointTemperatures,235,225,220,215
;   temperatureStabilizeAtStartup,1
;   temperatureHeatedBed,0
;   temperatureRelayBetweenLayers,0
;   temperatureRelayBetweenLoops,0
;   fanLayers,1,2
;   fanSpeeds,0,100
;   blipFanToFullPower,0
;   adjustSpeedForCooling,1
;   minSpeedLayerTime,15
;   minCoolingSpeedSlowdown,20
;   increaseFanForCooling,0
;   minFanLayerTime,45
;   maxCoolingFanSpeed,100
;   increaseFanForBridging,0
;   bridgingFanSpeed,100
;   use5D,1
;   relativeEdistances,0
;   allowEaxisZeroing,1
;   independentExtruderAxes,0
;   includeM10123,0
;   stickySupport,1
;   applyToolheadOffsets,0
;   gcodeXoffset,0
;   gcodeYoffset,0
;   gcodeZoffset,0
;   overrideMachineDefinition,1
;   machineTypeOverride,0
;   strokeXoverride,297
;   strokeYoverride,210
;   strokeZoverride,200
;   originOffsetXoverride,0
;   originOffsetYoverride,0
;   originOffsetZoverride,0
;   homeXdirOverride,-1
;   homeYdirOverride,-1
;   homeZdirOverride,-1
;   flipXoverride,1
;   flipYoverride,-1
;   flipZoverride,1
;   toolheadOffsets,0,0|0,0|0,0|0,0|0,0|0,0
;   overrideFirmwareConfiguration,0
;   firmwareTypeOverride,RepRap (Marlin/Repetier/Sprinter)
;   GPXconfigOverride,r2
;   baudRateOverride,115200
;   overridePrinterModels,1
;   printerModelsOverride
;   startingGcode,M800 ; firmware starting routine
;   layerChangeGcode,
;   retractionGcode,
;   toolChangeGcode,
;   endingGcode,M801 ; firmware ending routine
;   exportFileFormat,gcode
;   celebration,0
;   celebrationSong,Random Song
;   postProcessing,
;   defaultSpeed,3600
;   outlineUnderspeed,0.5
;   solidInfillUnderspeed,0.8
;   supportUnderspeed,0.8
;   rapidXYspeed,4800
;   rapidZspeed,1000
;   minBridgingArea,50
;   bridgingExtraInflation,0
;   bridgingExtrusionMultiplier,1
;   bridgingSpeedMultiplier,1
;   filamentDiameter,1.75
;   filamentPricePerKg,46
;   filamentDensity,1.25
;   useMinPrintHeight,0
;   minPrintHeight,0
;   useMaxPrintHeight,0
;   maxPrintHeight,0
;   useDiaphragm,0
;   diaphragmLayerInterval,20
;   robustSlicing,1
;   mergeAllIntoSolid,0
;   onlyRetractWhenCrossingOutline,1
;   retractBetweenLayers,1
;   useRetractionMinTravel,0
;   retractionMinTravel,3
;   retractWhileWiping,1
;   onlyWipeOutlines,0
;   avoidCrossingOutline,1
;   maxMovementDetourFactor,20
;   toolChangeRetractionDistance,12
;   toolChangeExtraRestartDistance,-0.5
;   toolChangeRetractionSpeed,600
;   allowThinWallGapFill,1
;   thinWallAllowedOverlapPercentage,10
;   horizontalSizeCompensation,0
G90
M82
M106 S0
M104 S235 T0
M109 S235 T0
M800 ; firmware starting routine
G92 E0
G1 E-2.0000 F1800
G1 Z0.180 F1000
; layer 1, Z = 0.18
T0
; tool H0.200 W0.360
; skirt
G1 X118.274 Y83.659 F4800
G1 E0.0000 F540
G92 E0
G1 X122.299 Y78.871 E0.1685 F1800
G1 X122.543 Y78.711 E0.1764
G1 X122.654 Y78.677 E0.1795
G1 X122.689 Y78.567 E0.1826
G1 X122.854 Y78.326 E0.1905
G1 X127.713 Y74.386 E0.3590
G1 X127.983 Y74.275 E0.3669
G1 X128.098 Y74.263 E0.3700
G1 X128.154 Y74.161 E0.3731
G1 X128.361 Y73.956 E0.3810
G1 X133.877 Y71.007 E0.5495
G1 X134.164 Y70.949 E0.5574
G1 X134.279 Y70.959 E0.5605
G1 X134.353 Y70.870 E0.5636
G1 X134.595 Y70.707 E0.5715
G1 X140.570 Y68.856 E0.7400
G1 X140.862 Y68.853 E0.7479
G1 X140.973 Y68.885 E0.7510
G1 X141.063 Y68.811 E0.7541
G1 X141.332 Y68.697 E0.7620
G1 X147.549 Y68.010 E0.9305
G1 X147.836 Y68.062 E0.9384
G1 X147.940 Y68.114 E0.9415
G1 X148.041 Y68.059 E0.9446
G1 X148.327 Y67.998 E0.9525
G1 X154.562 Y68.500 E1.1210
G1 X154.834 Y68.606 E1.1289
G1 X154.926 Y68.677 E1.1320
G1 X155.036 Y68.641 E1.1351
G1 X155.328 Y68.636 E1.1430
G1 X161.355 Y70.308 E1.3115
G1 X161.603 Y70.464 E1.3194
G1 X161.679 Y70.551 E1.3225
G1 X161.794 Y70.537 E1.3256
G1 X162.082 Y70.587 E1.3335
G1 X167.684 Y73.370 E1.5020
G1 X167.897 Y73.569 E1.5099
G1 X167.956 Y73.669 E1.5130
G1 X168.071 Y73.677 E1.5161
G1 X168.345 Y73.781 E1.5240
G1 X173.318 Y77.573 E1.6925
G1 X173.490 Y77.810 E1.7004
G1 X173.529 Y77.919 E1.7035
G1 X173.641 Y77.949 E1.7066
G1 X173.889 Y78.102 E1.7145
G1 X178.063 Y82.776 E1.8833
G1 X178.188 Y83.042 E1.8912
G1 X178.204 Y83.150 E1.8941
G1 X178.301 Y83.197 E1.8971
G1 X178.516 Y83.395 E1.9049
G1 X181.724 Y88.765 E2.0734
G1 X181.796 Y89.048 E2.0813
G1 X181.791 Y89.163 E2.0844
G1 X181.884 Y89.233 E2.0875
G1 X182.058 Y89.468 E2.0954
G1 X184.192 Y95.347 E2.2639
G1 X184.209 Y95.639 E2.2718
G1 X184.182 Y95.752 E2.2749
G1 X184.260 Y95.837 E2.2780
G1 X184.386 Y96.101 E2.2859
G1 X185.369 Y102.278 E2.4544
G1 X185.330 Y102.568 E2.4623
G1 X185.283 Y102.673 E2.4654
G1 X185.343 Y102.772 E2.4685
G1 X185.417 Y103.055 E2.4764
G1 X185.213 Y109.306 E2.6449
G1 X185.120 Y109.583 E2.6528
G1 X185.054 Y109.678 E2.6559
G1 X185.094 Y109.787 E2.6590
G1 X185.114 Y110.078 E2.6669
G1 X183.730 Y116.178 E2.8354
G1 X183.586 Y116.433 E2.8433
G1 X183.503 Y116.513 E2.8464
G1 X183.522 Y116.627 E2.8495
G1 X183.486 Y116.917 E2.8574
G1 X180.973 Y122.645 E3.0259
G1 X180.784 Y122.868 E3.0338
G1 X180.687 Y122.931 E3.0369
G1 X180.684 Y123.047 E3.0400
G1 X180.594 Y123.325 E3.0479
G1 X177.042 Y128.473 E3.2164
G1 X176.814 Y128.656 E3.2243
G1 X176.707 Y128.700 E3.2274
G1 X176.682 Y128.813 E3.2305
G1 X176.541 Y129.069 E3.2384
G1 X172.079 Y133.452 E3.4069
G1 X171.821 Y133.589 E3.4148
G1 X171.707 Y133.612 E3.4179
G1 X171.662 Y133.718 E3.4210
G1 X171.475 Y133.943 E3.4289
G1 X166.264 Y137.402 E3.5974
G1 X165.984 Y137.487 E3.6053
G1 X165.868 Y137.488 E3.6084
G1 X165.803 Y137.584 E3.6115
G1 X165.577 Y137.769 E3.6194
G1 X159.806 Y140.180 E3.7879
G1 X159.515 Y140.211 E3.7958
G1 X159.401 Y140.190 E3.7989
G1 X159.319 Y140.272 E3.8020
G1 X159.062 Y140.410 E3.8099
G1 X152.939 Y141.686 E3.9784
G1 X152.648 Y141.661 E3.9863
G1 X152.540 Y141.618 E3.9894
G1 X152.444 Y141.683 E3.9925
G1 X152.165 Y141.771 E4.0004
G1 X145.911 Y141.864 E4.1689
G1 X145.630 Y141.785 E4.1768
G1 X145.532 Y141.723 E4.1799
G1 X145.426 Y141.769 E4.1830
G1 X145.135 Y141.802 E4.1909
G1 X138.977 Y140.710 E4.3594
G1 X138.716 Y140.579 E4.3673
G1 X138.631 Y140.499 E4.3704
G1 X138.518 Y140.524 E4.3735
G1 X138.227 Y140.502 E4.3814
G1 X132.386 Y138.264 E4.5499
G1 X132.154 Y138.086 E4.5578
G1 X132.087 Y137.992 E4.5609
G1 X131.971 Y137.994 E4.5640
G1 X131.689 Y137.918 E4.5719
G1 X126.377 Y134.615 E4.7404
G1 X126.183 Y134.396 E4.7483
G1 X126.135 Y134.291 E4.7514
G1 X126.020 Y134.272 E4.7545
G1 X125.758 Y134.143 E4.7624
G1 X121.167 Y129.894 E4.9309
G1 X121.019 Y129.643 E4.9387
G1 X120.991 Y129.530 E4.9419
G1 X120.882 Y129.490 E4.9450
G1 X120.649 Y129.314 E4.9529
G1 X116.945 Y124.273 E5.1214
G1 X116.847 Y123.998 E5.1292
G1 X116.841 Y123.883 E5.1324
G1 X116.742 Y123.822 E5.1355
G1 X116.546 Y123.605 E5.1434
G1 X113.863 Y117.955 E5.3119
G1 X113.819 Y117.666 E5.3197
G1 X113.835 Y117.552 E5.3229
G1 X113.749 Y117.474 E5.3260
G1 X113.598 Y117.223 E5.3339
G1 X112.033 Y111.167 E5.5024
G1 X112.044 Y110.876 E5.5102
G1 X112.081 Y110.766 E5.5134
G1 X112.011 Y110.673 E5.5165
G1 X111.911 Y110.399 E5.5243
G1 X111.520 Y104.156 E5.6929
G1 X111.586 Y103.872 E5.7007
G1 X111.643 Y103.771 E5.7039
G1 X111.592 Y103.667 E5.7070
G1 X111.545 Y103.378 E5.7148
G1 X112.343 Y97.174 E5.8834
G1 X112.462 Y96.908 E5.8912
G1 X112.537 Y96.820 E5.8943
G1 X112.507 Y96.708 E5.8975
G1 X112.515 Y96.416 E5.9053
G1 X114.473 Y90.475 E6.0739
G1 X114.640 Y90.235 E6.0817
G1 X114.730 Y90.163 E6.0848
G1 X114.722 Y90.047 E6.0880
G1 X114.785 Y89.762 E6.0958
G1 X117.832 Y84.299 E6.2643
G1 X118.041 Y84.096 E6.2722
G1 X118.144 Y84.042 E6.2753
G1 X118.158 Y83.927 E6.2785
G1 X118.274 Y83.659 E6.2863
G1 X118.618 Y83.871 F4800
G92 E0
G1 X122.568 Y79.173 E0.1654 F1800
G1 X122.714 Y79.077 E0.1701
G1 X122.971 Y79.000 E0.1773
G1 X123.053 Y78.744 E0.1845
G1 X123.151 Y78.600 E0.1893
G1 X127.919 Y74.734 E0.3546
G1 X128.081 Y74.667 E0.3593
G1 X128.348 Y74.640 E0.3666
G1 X128.477 Y74.404 E0.3738
G1 X128.601 Y74.281 E0.3785
G1 X134.014 Y71.387 E0.5439
G1 X134.186 Y71.352 E0.5486
G1 X134.453 Y71.376 E0.5558
G1 X134.624 Y71.170 E0.5631
G1 X134.770 Y71.072 E0.5678
G1 X140.632 Y69.255 E0.7331
G1 X140.808 Y69.253 E0.7379
G1 X141.066 Y69.327 E0.7451
G1 X141.272 Y69.156 E0.7523
G1 X141.434 Y69.088 E0.7570
G1 X147.535 Y68.414 E0.9224
G1 X147.707 Y68.445 E0.9271
G1 X147.946 Y68.567 E0.9344
G1 X148.182 Y68.438 E0.9416
G1 X148.353 Y68.401 E0.9463
G1 X154.472 Y68.894 E1.1117
G1 X154.635 Y68.957 E1.1164
G1 X154.847 Y69.122 E1.1236
G1 X155.102 Y69.040 E1.1308
G1 X155.277 Y69.037 E1.1356
G1 X161.192 Y70.678 E1.3009
G1 X161.340 Y70.771 E1.3056
G1 X161.517 Y70.973 E1.3129
G1 X161.784 Y70.941 E1.3201
G1 X161.956 Y70.971 E1.3248
G1 X167.453 Y73.702 E1.4902
G1 X167.581 Y73.822 E1.4949
G1 X167.717 Y74.053 E1.5021
G1 X167.985 Y74.072 E1.5094
G1 X168.148 Y74.134 E1.5141
G1 X173.029 Y77.856 E1.6794
G1 X173.132 Y77.998 E1.6842
G1 X173.222 Y78.251 E1.6914
G1 X173.481 Y78.320 E1.6986
G1 X173.630 Y78.412 E1.7033
G1 X177.726 Y82.999 E1.8690
G1 X177.800 Y83.158 E1.8738
G1 X177.839 Y83.417 E1.8808
G1 X178.074 Y83.532 E1.8879
G1 X178.203 Y83.650 E1.8926
G1 X181.351 Y88.919 E2.0579
G1 X181.394 Y89.089 E2.0627
G1 X181.383 Y89.357 E2.0699
G1 X181.598 Y89.518 E2.0771
G1 X181.702 Y89.659 E2.0818
G1 X183.796 Y95.429 E2.2472
G1 X183.806 Y95.604 E2.2519
G1 X183.744 Y95.865 E2.2591
G1 X183.925 Y96.063 E2.2664
G1 X184.001 Y96.221 E2.2711
G1 X184.965 Y102.283 E2.4365
G1 X184.941 Y102.457 E2.4412
G1 X184.831 Y102.702 E2.4484
G1 X184.971 Y102.931 E2.4556
G1 X185.016 Y103.100 E2.4604
G1 X184.815 Y109.235 E2.6257
G1 X184.759 Y109.401 E2.6304
G1 X184.605 Y109.621 E2.6377
G1 X184.699 Y109.872 E2.6449
G1 X184.711 Y110.047 E2.6496
G1 X183.353 Y116.033 E2.8150
G1 X183.267 Y116.185 E2.8197
G1 X183.074 Y116.372 E2.8269
G1 X183.118 Y116.636 E2.8342
G1 X183.096 Y116.810 E2.8389
G1 X180.630 Y122.431 E3.0042
G1 X180.517 Y122.564 E3.0090
G1 X180.292 Y122.711 E3.0162
G1 X180.286 Y122.979 E3.0234
G1 X180.231 Y123.146 E3.0281
G1 X176.746 Y128.198 E3.1935
G1 X176.609 Y128.308 E3.1982
G1 X176.361 Y128.409 E3.2055
G1 X176.304 Y128.671 E3.2127
G1 X176.219 Y128.825 E3.2174
G1 X171.840 Y133.126 E3.3828
G1 X171.686 Y133.208 E3.3875
G1 X171.422 Y133.260 E3.3947
G1 X171.317 Y133.507 E3.4019
G1 X171.205 Y133.642 E3.4067
G1 X166.091 Y137.037 E3.5720
G1 X165.923 Y137.088 E3.5767
G1 X165.655 Y137.089 E3.5840
G1 X165.505 Y137.312 E3.5912
G1 X165.369 Y137.423 E3.5959
G1 X159.706 Y139.789 E3.7613
G1 X159.531 Y139.807 E3.7660
G1 X159.267 Y139.758 E3.7732
G1 X159.078 Y139.947 E3.7805
G1 X158.924 Y140.031 E3.7852
G1 X152.915 Y141.282 E3.9505
G1 X152.740 Y141.267 E3.9553
G1 X152.490 Y141.169 E3.9625
G1 X152.268 Y141.319 E3.9697
G1 X152.101 Y141.372 E3.9744
G1 X145.963 Y141.463 E4.1398
G1 X145.795 Y141.416 E4.1445
G1 X145.568 Y141.272 E4.1518
G1 X145.322 Y141.378 E4.1590
G1 X145.148 Y141.398 E4.1637
G1 X139.104 Y140.326 E4.3291
G1 X138.947 Y140.248 E4.3338
G1 X138.752 Y140.064 E4.3410
G1 X138.490 Y140.121 E4.3482
G1 X138.315 Y140.107 E4.3530
G1 X132.584 Y137.911 E4.5183
G1 X132.445 Y137.804 E4.5230
G1 X132.288 Y137.587 E4.5303
G1 X132.019 Y137.593 E4.5375
G1 X131.850 Y137.547 E4.5422
G1 X126.638 Y134.306 E4.7076
G1 X126.522 Y134.175 E4.7123
G1 X126.409 Y133.931 E4.7195
G1 X126.144 Y133.887 E4.7268
G1 X125.987 Y133.810 E4.7315
G1 X121.482 Y129.640 E4.8968
G1 X121.393 Y129.490 E4.9016
G1 X121.328 Y129.229 E4.9088
G1 X121.077 Y129.136 E4.9160
G1 X120.937 Y129.030 E4.9207
G1 X117.302 Y124.084 E5.0861
G1 X117.243 Y123.919 E5.0908
G1 X117.229 Y123.651 E5.0981
G1 X117.000 Y123.511 E5.1053
G1 X116.883 Y123.381 E5.1100
G1 X114.250 Y117.836 E5.2754
G1 X114.223 Y117.663 E5.2801
G1 X114.260 Y117.397 E5.2873
G1 X114.061 Y117.217 E5.2945
G1 X113.971 Y117.067 E5.2993
G1 X112.435 Y111.124 E5.4646
G1 X112.441 Y110.949 E5.4694
G1 X112.527 Y110.695 E5.4766
G1 X112.367 Y110.480 E5.4838
G1 X112.306 Y110.316 E5.4885
G1 X111.923 Y104.190 E5.6539
G1 X111.962 Y104.019 E5.6586
G1 X112.095 Y103.786 E5.6658
G1 X111.978 Y103.544 E5.6731
G1 X111.950 Y103.371 E5.6778
G1 X112.732 Y97.283 E5.8432
G1 X112.804 Y97.123 E5.8479
G1 X112.978 Y96.920 E5.8551
G1 X112.909 Y96.661 E5.8623
G1 X112.914 Y96.485 E5.8670
G1 X114.834 Y90.656 E6.0324
G1 X114.935 Y90.512 E6.0371
G1 X115.144 Y90.345 E6.0444
G1 X115.125 Y90.077 E6.0516
G1 X115.163 Y89.906 E6.0563
G1 X118.153 Y84.545 E6.2217
G1 X118.278 Y84.423 E6.2264
G1 X118.516 Y84.299 E6.2336
G1 X118.548 Y84.032 E6.2408
G1 X118.618 Y83.871 E6.2456
G1 X118.961 Y84.084 F4800
G92 E0
G1 X122.836 Y79.475 E0.1622 F1800
G1 X122.885 Y79.443 E0.1638
G1 X123.288 Y79.322 E0.1751
G1 X123.416 Y78.922 E0.1865
G1 X123.449 Y78.873 E0.1880
G1 X128.126 Y75.081 E0.3502
G1 X128.180 Y75.059 E0.3518
G1 X128.598 Y75.017 E0.3631
G1 X128.800 Y74.647 E0.3745
G1 X128.841 Y74.606 E0.3761
G1 X134.151 Y71.768 E0.5383
G1 X134.209 Y71.756 E0.5398
G1 X134.627 Y71.794 E0.5512
G1 X134.895 Y71.469 E0.5625
G1 X134.944 Y71.437 E0.5641
G1 X140.695 Y69.654 E0.7263
G1 X140.754 Y69.654 E0.7279
G1 X141.158 Y69.770 E0.7392
G1 X141.482 Y69.502 E0.7505
G1 X141.536 Y69.479 E0.7521
G1 X147.521 Y68.818 E0.9143
G1 X147.578 Y68.828 E0.9159
G1 X147.953 Y69.019 E0.9272
G1 X148.322 Y68.817 E0.9386
G1 X148.379 Y68.805 E0.9401
G1 X154.381 Y69.288 E1.1023
G1 X154.436 Y69.309 E1.1039
G1 X154.768 Y69.567 E1.1152
G1 X155.168 Y69.439 E1.1266
G1 X155.227 Y69.438 E1.1281
G1 X161.029 Y71.048 E1.2904
G1 X161.078 Y71.079 E1.2919
G1 X161.356 Y71.395 E1.3033
G1 X161.773 Y71.345 E1.3146
G1 X161.831 Y71.355 E1.3162
G1 X167.223 Y74.034 E1.4784
G1 X167.266 Y74.074 E1.4800
G1 X167.478 Y74.437 E1.4913
G1 X167.898 Y74.467 E1.5026
G1 X167.952 Y74.488 E1.5042
G1 X172.740 Y78.139 E1.6664
G1 X172.775 Y78.186 E1.6680
G1 X172.915 Y78.583 E1.6793
G1 X173.321 Y78.691 E1.6907
G1 X173.371 Y78.722 E1.6922
G1 X177.388 Y83.222 E1.8547
